luts/cool.cube
# cool — generated by luts/generate_luts.py. Do not edit by hand.
TITLE "cool"
LUT_3D_SIZE 9
DOMAIN_MIN 0.0 0.0 0.0
DOMAIN_MAX 1.0 1.0 1.0

0.000000 0.000000 0.000000
0.091505 0.000000 0.000000
0.203063 0.000000 0.000000
0.323695 0.000000 0.000000
0.450625 0.000000 0.000000
0.582455 0.000000 0.000000
0.718324 0.000000 0.000000
0.857648 0.000000 0.000000
1.000000 0.000000 0.000000
0.000000 0.119908 0.000000
0.091505 0.119908 0.000000
0.203063 0.119908 0.000000
0.323695 0.119908 0.000000
0.450625 0.119908 0.000000
0.582455 0.119908 0.000000
0.718324 0.119908 0.000000
0.857648 0.119908 0.000000
1.000000 0.119908 0.000000
0.000000 0.243164 0.000000
0.091505 0.243164 0.000000
0.203063 0.243164 0.000000
0.323695 0.243164 0.000000
0.450625 0.243164 0.000000
0.582455 0.243164 0.000000
0.718324 0.243164 0.000000
0.857648 0.243164 0.000000
1.000000 0.243164 0.000000
0.000000 0.367715 0.000000
0.091505 0.367715 0.000000
0.203063 0.367715 0.000000
0.323695 0.367715 0.000000
0.450625 0.367715 0.000000
0.582455 0.367715 0.000000
0.718324 0.367715 0.000000
0.857648 0.367715 0.000000
1.000000 0.367715 0.000000
0.000000 0.493116 0.000000
0.091505 0.493116 0.000000
0.203063 0.493116 0.000000
0.323695 0.493116 0.000000
0.450625 0.493116 0.000000
0.582455 0.493116 0.000000
0.718324 0.493116 0.000000
0.857648 0.493116 0.000000
1.000000 0.493116 0.000000
0.000000 0.619152 0.000000
0.091505 0.619152 0.000000
0.203063 0.619152 0.000000
0.323695 0.619152 0.000000
0.450625 0.619152 0.000000
0.582455 0.619152 0.000000
0.718324 0.619152 0.000000
0.857648 0.619152 0.000000
1.000000 0.619152 0.000000
0.000000 0.745697 0.000000
0.091505 0.745697 0.000000
0.203063 0.745697 0.000000
0.323695 0.745697 0.000000
0.450625 0.745697 0.000000
0.582455 0.745697 0.000000
0.718324 0.745697 0.000000
0.857648 0.745697 0.000000
1.000000 0.745697 0.000000
0.000000 0.872666 0.000000
0.091505 0.872666 0.000000
0.203063 0.872666 0.000000
0.323695 0.872666 0.000000
0.450625 0.872666 0.000000
0.582455 0.872666 0.000000
0.718324 0.872666 0.000000
0.857648 0.872666 0.000000
1.000000 0.872666 0.000000
0.000000 1.000000 0.000000
0.091505 1.000000 0.000000
0.203063 1.000000 0.000000
0.323695 1.000000 0.000000
0.450625 1.000000 0.000000
0.582455 1.000000 0.000000
0.718324 1.000000 0.000000
0.857648 1.000000 0.000000
1.000000 1.000000 0.000000
0.000000 0.000000 0.167241
0.091505 0.000000 0.167241
0.203063 0.000000 0.167241
0.323695 0.000000 0.167241
0.450625 0.000000 0.167241
0.582455 0.000000 0.167241
0.718324 0.000000 0.167241
0.857648 0.000000 0.167241
1.000000 0.000000 0.167241
0.000000 0.119908 0.167241
0.091505 0.119908 0.167241
0.203063 0.119908 0.167241
0.323695 0.119908 0.167241
0.450625 0.119908 0.167241
0.582455 0.119908 0.167241
0.718324 0.119908 0.167241
0.857648 0.119908 0.167241
1.000000 0.119908 0.167241
0.000000 0.243164 0.167241
0.091505 0.243164 0.167241
0.203063 0.243164 0.167241
0.323695 0.243164 0.167241
0.450625 0.243164 0.167241
0.582455 0.243164 0.167241
0.718324 0.243164 0.167241
0.857648 0.243164 0.167241
1.000000 0.243164 0.167241
0.000000 0.367715 0.167241
0.091505 0.367715 0.167241
0.203063 0.367715 0.167241
0.323695 0.367715 0.167241
0.450625 0.367715 0.167241
0.582455 0.367715 0.167241
0.718324 0.367715 0.167241
0.857648 0.367715 0.167241
1.000000 0.367715 0.167241
0.000000 0.493116 0.167241
0.091505 0.493116 0.167241
0.203063 0.493116 0.167241
0.323695 0.493116 0.167241
0.450625 0.493116 0.167241
0.582455 0.493116 0.167241
0.718324 0.493116 0.167241
0.857648 0.493116 0.167241
1.000000 0.493116 0.167241
0.000000 0.619152 0.167241
0.091505 0.619152 0.167241
0.203063 0.619152 0.167241
0.323695 0.619152 0.167241
0.450625 0.619152 0.167241
0.582455 0.619152 0.167241
0.718324 0.619152 0.167241
0.857648 0.619152 0.167241
1.000000 0.619152 0.167241
0.000000 0.745697 0.167241
0.091505 0.745697 0.167241
0.203063 0.745697 0.167241
0.323695 0.745697 0.167241
0.450625 0.745697 0.167241
0.582455 0.745697 0.167241
0.718324 0.745697 0.167241
0.857648 0.745697 0.167241
1.000000 0.745697 0.167241
0.000000 0.872666 0.167241
0.091505 0.872666 0.167241
0.203063 0.872666 0.167241
0.323695 0.872666 0.167241
0.450625 0.872666 0.167241
0.582455 0.872666 0.167241
0.718324 0.872666 0.167241
0.857648 0.872666 0.167241
1.000000 0.872666 0.167241
0.000000 1.000000 0.167241
0.091505 1.000000 0.167241
0.203063 1.000000 0.167241
0.323695 1.000000 0.167241
0.450625 1.000000 0.167241
0.582455 1.000000 0.167241
0.718324 1.000000 0.167241
0.857648 1.000000 0.167241
1.000000 1.000000 0.167241
0.000000 0.000000 0.303549
0.091505 0.000000 0.303549
0.203063 0.000000 0.303549
0.323695 0.000000 0.303549
0.450625 0.000000 0.303549
0.582455 0.000000 0.303549
0.718324 0.000000 0.303549
0.857648 0.000000 0.303549
1.000000 0.000000 0.303549
0.000000 0.119908 0.303549
0.091505 0.119908 0.303549
0.203063 0.119908 0.303549
0.323695 0.119908 0.303549
0.450625 0.119908 0.303549
0.582455 0.119908 0.303549
0.718324 0.119908 0.303549
0.857648 0.119908 0.303549
1.000000 0.119908 0.303549
0.000000 0.243164 0.303549
0.091505 0.243164 0.303549
0.203063 0.243164 0.303549
0.323695 0.243164 0.303549
0.450625 0.243164 0.303549
0.582455 0.243164 0.303549
0.718324 0.243164 0.303549
0.857648 0.243164 0.303549
1.000000 0.243164 0.303549
0.000000 0.367715 0.303549
0.091505 0.367715 0.303549
0.203063 0.367715 0.303549
0.323695 0.367715 0.303549
0.450625 0.367715 0.303549
0.582455 0.367715 0.303549
0.718324 0.367715 0.303549
0.857648 0.367715 0.303549
1.000000 0.367715 0.303549
0.000000 0.493116 0.303549
0.091505 0.493116 0.303549
0.203063 0.493116 0.303549
0.323695 0.493116 0.303549
0.450625 0.493116 0.303549
0.582455 0.493116 0.303549
0.718324 0.493116 0.303549
0.857648 0.493116 0.303549
1.000000 0.493116 0.303549
0.000000 0.619152 0.303549
0.091505 0.619152 0.303549
0.203063 0.619152 0.303549
0.323695 0.619152 0.303549
0.450625 0.619152 0.303549
0.582455 0.619152 0.303549
0.718324 0.619152 0.303549
0.857648 0.619152 0.303549
1.000000 0.619152 0.303549
0.000000 0.745697 0.303549
0.091505 0.745697 0.303549
0.203063 0.745697 0.303549
0.323695 0.745697 0.303549
0.450625 0.745697 0.303549
0.582455 0.745697 0.303549
0.718324 0.745697 0.303549
0.857648 0.745697 0.303549
1.000000 0.745697 0.303549
0.000000 0.872666 0.303549
0.091505 0.872666 0.303549
0.203063 0.872666 0.303549
0.323695 0.872666 0.303549
0.450625 0.872666 0.303549
0.582455 0.872666 0.303549
0.718324 0.872666 0.303549
0.857648 0.872666 0.303549
1.000000 0.872666 0.303549
0.000000 1.000000 0.303549
0.091505 1.000000 0.303549
0.203063 1.000000 0.303549
0.323695 1.000000 0.303549
0.450625 1.000000 0.303549
0.582455 1.000000 0.303549
0.718324 1.000000 0.303549
0.857648 1.000000 0.303549
1.000000 1.000000 0.303549
0.000000 0.000000 0.430197
0.091505 0.000000 0.430197
0.203063 0.000000 0.430197
0.323695 0.000000 0.430197
0.450625 0.000000 0.430197
0.582455 0.000000 0.430197
0.718324 0.000000 0.430197
0.857648 0.000000 0.430197
1.000000 0.000000 0.430197
0.000000 0.119908 0.430197
0.091505 0.119908 0.430197
0.203063 0.119908 0.430197
0.323695 0.119908 0.430197
0.450625 0.119908 0.430197
0.582455 0.119908 0.430197
0.718324 0.119908 0.430197
0.857648 0.119908 0.430197
1.000000 0.119908 0.430197
0.000000 0.243164 0.430197
0.091505 0.243164 0.430197
0.203063 0.243164 0.430197
0.323695 0.243164 0.430197
0.450625 0.243164 0.430197
0.582455 0.243164 0.430197
0.718324 0.243164 0.430197
0.857648 0.243164 0.430197
1.000000 0.243164 0.430197
0.000000 0.367715 0.430197
0.091505 0.367715 0.430197
0.203063 0.367715 0.430197
0.323695 0.367715 0.430197
0.450625 0.367715 0.430197
0.582455 0.367715 0.430197
0.718324 0.367715 0.430197
0.857648 0.367715 0.430197
1.000000 0.367715 0.430197
0.000000 0.493116 0.430197
0.091505 0.493116 0.430197
0.203063 0.493116 0.430197
0.323695 0.493116 0.430197
0.450625 0.493116 0.430197
0.582455 0.493116 0.430197
0.718324 0.493116 0.430197
0.857648 0.493116 0.430197
1.000000 0.493116 0.430197
0.000000 0.619152 0.430197
0.091505 0.619152 0.430197
0.203063 0.619152 0.430197
0.323695 0.619152 0.430197
0.450625 0.619152 0.430197
0.582455 0.619152 0.430197
0.718324 0.619152 0.430197
0.857648 0.619152 0.430197
1.000000 0.619152 0.430197
0.000000 0.745697 0.430197
0.091505 0.745697 0.430197
0.203063 0.745697 0.430197
0.323695 0.745697 0.430197
0.450625 0.745697 0.430197
0.582455 0.745697 0.430197
0.718324 0.745697 0.430197
0.857648 0.745697 0.430197
1.000000 0.745697 0.430197
0.000000 0.872666 0.430197
0.091505 0.872666 0.430197
0.203063 0.872666 0.430197
0.323695 0.872666 0.430197
0.450625 0.872666 0.430197
0.582455 0.872666 0.430197
0.718324 0.872666 0.430197
0.857648 0.872666 0.430197
1.000000 0.872666 0.430197
0.000000 1.000000 0.430197
0.091505 1.000000 0.430197
0.203063 1.000000 0.430197
0.323695 1.000000 0.430197
0.450625 1.000000 0.430197
0.582455 1.000000 0.430197
0.718324 1.000000 0.430197
0.857648 1.000000 0.430197
1.000000 1.000000 0.430197
0.000000 0.000000 0.550953
0.091505 0.000000 0.550953
0.203063 0.000000 0.550953
0.323695 0.000000 0.550953
0.450625 0.000000 0.550953
0.582455 0.000000 0.550953
0.718324 0.000000 0.550953
0.857648 0.000000 0.550953
1.000000 0.000000 0.550953
0.000000 0.119908 0.550953
0.091505 0.119908 0.550953
0.203063 0.119908 0.550953
0.323695 0.119908 0.550953
0.450625 0.119908 0.550953
0.582455 0.119908 0.550953
0.718324 0.119908 0.550953
0.857648 0.119908 0.550953
1.000000 0.119908 0.550953
0.000000 0.243164 0.550953
0.091505 0.243164 0.550953
0.203063 0.243164 0.550953
0.323695 0.243164 0.550953
0.450625 0.243164 0.550953
0.582455 0.243164 0.550953
0.718324 0.243164 0.550953
0.857648 0.243164 0.550953
1.000000 0.243164 0.550953
0.000000 0.367715 0.550953
0.091505 0.367715 0.550953
0.203063 0.367715 0.550953
0.323695 0.367715 0.550953
0.450625 0.367715 0.550953
0.582455 0.367715 0.550953
0.718324 0.367715 0.550953
0.857648 0.367715 0.550953
1.000000 0.367715 0.550953
0.000000 0.493116 0.550953
0.091505 0.493116 0.550953
0.203063 0.493116 0.550953
0.323695 0.493116 0.550953
0.450625 0.493116 0.550953
0.582455 0.493116 0.550953
0.718324 0.493116 0.550953
0.857648 0.493116 0.550953
1.000000 0.493116 0.550953
0.000000 0.619152 0.550953
0.091505 0.619152 0.550953
0.203063 0.619152 0.550953
0.323695 0.619152 0.550953
0.450625 0.619152 0.550953
0.582455 0.619152 0.550953
0.718324 0.619152 0.550953
0.857648 0.619152 0.550953
1.000000 0.619152 0.550953
0.000000 0.745697 0.550953
0.091505 0.745697 0.550953
0.203063 0.745697 0.550953
0.323695 0.745697 0.550953
0.450625 0.745697 0.550953
0.582455 0.745697 0.550953
0.718324 0.745697 0.550953
0.857648 0.745697 0.550953
1.000000 0.745697 0.550953
0.000000 0.872666 0.550953
0.091505 0.872666 0.550953
0.203063 0.872666 0.550953
0.323695 0.872666 0.550953
0.450625 0.872666 0.550953
0.582455 0.872666 0.550953
0.718324 0.872666 0.550953
0.857648 0.872666 0.550953
1.000000 0.872666 0.550953
0.000000 1.000000 0.550953
0.091505 1.000000 0.550953
0.203063 1.000000 0.550953
0.323695 1.000000 0.550953
0.450625 1.000000 0.550953
0.582455 1.000000 0.550953
0.718324 1.000000 0.550953
0.857648 1.000000 0.550953
1.000000 1.000000 0.550953
0.000000 0.000000 0.667509
0.091505 0.000000 0.667509
0.203063 0.000000 0.667509
0.323695 0.000000 0.667509
0.450625 0.000000 0.667509
0.582455 0.000000 0.667509
0.718324 0.000000 0.667509
0.857648 0.000000 0.667509
1.000000 0.000000 0.667509
0.000000 0.119908 0.667509
0.091505 0.119908 0.667509
0.203063 0.119908 0.667509
0.323695 0.119908 0.667509
0.450625 0.119908 0.667509
0.582455 0.119908 0.667509
0.718324 0.119908 0.667509
0.857648 0.119908 0.667509
1.000000 0.119908 0.667509
0.000000 0.243164 0.667509
0.091505 0.243164 0.667509
0.203063 0.243164 0.667509
0.323695 0.243164 0.667509
0.450625 0.243164 0.667509
0.582455 0.243164 0.667509
0.718324 0.243164 0.667509
0.857648 0.243164 0.667509
1.000000 0.243164 0.667509
0.000000 0.367715 0.667509
0.091505 0.367715 0.667509
0.203063 0.367715 0.667509
0.323695 0.367715 0.667509
0.450625 0.367715 0.667509
0.582455 0.367715 0.667509
0.718324 0.367715 0.667509
0.857648 0.367715 0.667509
1.000000 0.367715 0.667509
0.000000 0.493116 0.667509
0.091505 0.493116 0.667509
0.203063 0.493116 0.667509
0.323695 0.493116 0.667509
0.450625 0.493116 0.667509
0.582455 0.493116 0.667509
0.718324 0.493116 0.667509
0.857648 0.493116 0.667509
1.000000 0.493116 0.667509
0.000000 0.619152 0.667509
0.091505 0.619152 0.667509
0.203063 0.619152 0.667509
0.323695 0.619152 0.667509
0.450625 0.619152 0.667509
0.582455 0.619152 0.667509
0.718324 0.619152 0.667509
0.857648 0.619152 0.667509
1.000000 0.619152 0.667509
0.000000 0.745697 0.667509
0.091505 0.745697 0.667509
0.203063 0.745697 0.667509
0.323695 0.745697 0.667509
0.450625 0.745697 0.667509
0.582455 0.745697 0.667509
0.718324 0.745697 0.667509
0.857648 0.745697 0.667509
1.000000 0.745697 0.667509
0.000000 0.872666 0.667509
0.091505 0.872666 0.667509
0.203063 0.872666 0.667509
0.323695 0.872666 0.667509
0.450625 0.872666 0.667509
0.582455 0.872666 0.667509
0.718324 0.872666 0.667509
0.857648 0.872666 0.667509
1.000000 0.872666 0.667509
0.000000 1.000000 0.667509
0.091505 1.000000 0.667509
0.203063 1.000000 0.667509
0.323695 1.000000 0.667509
0.450625 1.000000 0.667509
0.582455 1.000000 0.667509
0.718324 1.000000 0.667509
0.857648 1.000000 0.667509
1.000000 1.000000 0.667509
0.000000 0.000000 0.780823
0.091505 0.000000 0.780823
0.203063 0.000000 0.780823
0.323695 0.000000 0.780823
0.450625 0.000000 0.780823
0.582455 0.000000 0.780823
0.718324 0.000000 0.780823
0.857648 0.000000 0.780823
1.000000 0.000000 0.780823
0.000000 0.119908 0.780823
0.091505 0.119908 0.780823
0.203063 0.119908 0.780823
0.323695 0.119908 0.780823
0.450625 0.119908 0.780823
0.582455 0.119908 0.780823
0.718324 0.119908 0.780823
0.857648 0.119908 0.780823
1.000000 0.119908 0.780823
0.000000 0.243164 0.780823
0.091505 0.243164 0.780823
0.203063 0.243164 0.780823
0.323695 0.243164 0.780823
0.450625 0.243164 0.780823
0.582455 0.243164 0.780823
0.718324 0.243164 0.780823
0.857648 0.243164 0.780823
1.000000 0.243164 0.780823
0.000000 0.367715 0.780823
0.091505 0.367715 0.780823
0.203063 0.367715 0.780823
0.323695 0.367715 0.780823
0.450625 0.367715 0.780823
0.582455 0.367715 0.780823
0.718324 0.367715 0.780823
0.857648 0.367715 0.780823
1.000000 0.367715 0.780823
0.000000 0.493116 0.780823
0.091505 0.493116 0.780823
0.203063 0.493116 0.780823
0.323695 0.493116 0.780823
0.450625 0.493116 0.780823
0.582455 0.493116 0.780823
0.718324 0.493116 0.780823
0.857648 0.493116 0.780823
1.000000 0.493116 0.780823
0.000000 0.619152 0.780823
0.091505 0.619152 0.780823
0.203063 0.619152 0.780823
0.323695 0.619152 0.780823
0.450625 0.619152 0.780823
0.582455 0.619152 0.780823
0.718324 0.619152 0.780823
0.857648 0.619152 0.780823
1.000000 0.619152 0.780823
0.000000 0.745697 0.780823
0.091505 0.745697 0.780823
0.203063 0.745697 0.780823
0.323695 0.745697 0.780823
0.450625 0.745697 0.780823
0.582455 0.745697 0.780823
0.718324 0.745697 0.780823
0.857648 0.745697 0.780823
1.000000 0.745697 0.780823
0.000000 0.872666 0.780823
0.091505 0.872666 0.780823
0.203063 0.872666 0.780823
0.323695 0.872666 0.780823
0.450625 0.872666 0.780823
0.582455 0.872666 0.780823
0.718324 0.872666 0.780823
0.857648 0.872666 0.780823
1.000000 0.872666 0.780823
0.000000 1.000000 0.780823
0.091505 1.000000 0.780823
0.203063 1.000000 0.780823
0.323695 1.000000 0.780823
0.450625 1.000000 0.780823
0.582455 1.000000 0.780823
0.718324 1.000000 0.780823
0.857648 1.000000 0.780823
1.000000 1.000000 0.780823
0.000000 0.000000 0.891511
0.091505 0.000000 0.891511
0.203063 0.000000 0.891511
0.323695 0.000000 0.891511
0.450625 0.000000 0.891511
0.582455 0.000000 0.891511
0.718324 0.000000 0.891511
0.857648 0.000000 0.891511
1.000000 0.000000 0.891511
0.000000 0.119908 0.891511
0.091505 0.119908 0.891511
0.203063 0.119908 0.891511
0.323695 0.119908 0.891511
0.450625 0.119908 0.891511
0.582455 0.119908 0.891511
0.718324 0.119908 0.891511
0.857648 0.119908 0.891511
1.000000 0.119908 0.891511
0.000000 0.243164 0.891511
0.091505 0.243164 0.891511
0.203063 0.243164 0.891511
0.323695 0.243164 0.891511
0.450625 0.243164 0.891511
0.582455 0.243164 0.891511
0.718324 0.243164 0.891511
0.857648 0.243164 0.891511
1.000000 0.243164 0.891511
0.000000 0.367715 0.891511
0.091505 0.367715 0.891511
0.203063 0.367715 0.891511
0.323695 0.367715 0.891511
0.450625 0.367715 0.891511
0.582455 0.367715 0.891511
0.718324 0.367715 0.891511
0.857648 0.367715 0.891511
1.000000 0.367715 0.891511
0.000000 0.493116 0.891511
0.091505 0.493116 0.891511
0.203063 0.493116 0.891511
0.323695 0.493116 0.891511
0.450625 0.493116 0.891511
0.582455 0.493116 0.891511
0.718324 0.493116 0.891511
0.857648 0.493116 0.891511
1.000000 0.493116 0.891511
0.000000 0.619152 0.891511
0.091505 0.619152 0.891511
0.203063 0.619152 0.891511
0.323695 0.619152 0.891511
0.450625 0.619152 0.891511
0.582455 0.619152 0.891511
0.718324 0.619152 0.891511
0.857648 0.619152 0.891511
1.000000 0.619152 0.891511
0.000000 0.745697 0.891511
0.091505 0.745697 0.891511
0.203063 0.745697 0.891511
0.323695 0.745697 0.891511
0.450625 0.745697 0.891511
0.582455 0.745697 0.891511
0.718324 0.745697 0.891511
0.857648 0.745697 0.891511
1.000000 0.745697 0.891511
0.000000 0.872666 0.891511
0.091505 0.872666 0.891511
0.203063 0.872666 0.891511
0.323695 0.872666 0.891511
0.450625 0.872666 0.891511
0.582455 0.872666 0.891511
0.718324 0.872666 0.891511
0.857648 0.872666 0.891511
1.000000 0.872666 0.891511
0.000000 1.000000 0.891511
0.091505 1.000000 0.891511
0.203063 1.000000 0.891511
0.323695 1.000000 0.891511
0.450625 1.000000 0.891511
0.582455 1.000000 0.891511
0.718324 1.000000 0.891511
0.857648 1.000000 0.891511
1.000000 1.000000 0.891511
0.000000 0.000000 1.000000
0.091505 0.000000 1.000000
0.203063 0.000000 1.000000
0.323695 0.000000 1.000000
0.450625 0.000000 1.000000
0.582455 0.000000 1.000000
0.718324 0.000000 1.000000
0.857648 0.000000 1.000000
1.000000 0.000000 1.000000
0.000000 0.119908 1.000000
0.091505 0.119908 1.000000
0.203063 0.119908 1.000000
0.323695 0.119908 1.000000
0.450625 0.119908 1.000000
0.582455 0.119908 1.000000
0.718324 0.119908 1.000000
0.857648 0.119908 1.000000
1.000000 0.119908 1.000000
0.000000 0.243164 1.000000
0.091505 0.243164 1.000000
0.203063 0.243164 1.000000
0.323695 0.243164 1.000000
0.450625 0.243164 1.000000
0.582455 0.243164 1.000000
0.718324 0.243164 1.000000
0.857648 0.243164 1.000000
1.000000 0.243164 1.000000
0.000000 0.367715 1.000000
0.091505 0.367715 1.000000
0.203063 0.367715 1.000000
0.323695 0.367715 1.000000
0.450625 0.367715 1.000000
0.582455 0.367715 1.000000
0.718324 0.367715 1.000000
0.857648 0.367715 1.000000
1.000000 0.367715 1.000000
0.000000 0.493116 1.000000
0.091505 0.493116 1.000000
0.203063 0.493116 1.000000
0.323695 0.493116 1.000000
0.450625 0.493116 1.000000
0.582455 0.493116 1.000000
0.718324 0.493116 1.000000
0.857648 0.493116 1.000000
1.000000 0.493116 1.000000
0.000000 0.619152 1.000000
0.091505 0.619152 1.000000
0.203063 0.619152 1.000000
0.323695 0.619152 1.000000
0.450625 0.619152 1.000000
0.582455 0.619152 1.000000
0.718324 0.619152 1.000000
0.857648 0.619152 1.000000
1.000000 0.619152 1.000000
0.000000 0.745697 1.000000
0.091505 0.745697 1.000000
0.203063 0.745697 1.000000
0.323695 0.745697 1.000000
0.450625 0.745697 1.000000
0.582455 0.745697 1.000000
0.718324 0.745697 1.000000
0.857648 0.745697 1.000000
1.000000 0.745697 1.000000
0.000000 0.872666 1.000000
0.091505 0.872666 1.000000
0.203063 0.872666 1.000000
0.323695 0.872666 1.000000
0.450625 0.872666 1.000000
0.582455 0.872666 1.000000
0.718324 0.872666 1.000000
0.857648 0.872666 1.000000
1.000000 0.872666 1.000000
0.000000 1.000000 1.000000
0.091505 1.000000 1.000000
0.203063 1.000000 1.000000
0.323695 1.000000 1.000000
0.450625 1.000000 1.000000
0.582455 1.000000 1.000000
0.718324 1.000000 1.000000
0.857648 1.000000 1.000000
1.000000 1.000000 1.000000
