luts/noir.cube
# noir — generated by luts/generate_luts.py. Do not edit by hand.
TITLE "noir"
LUT_3D_SIZE 9
DOMAIN_MIN 0.0 0.0 0.0
DOMAIN_MAX 1.0 1.0 1.0

0.000000 0.000000 0.000000
0.000000 0.000000 0.000000
0.000000 0.000000 0.000000
0.015156 0.015156 0.015156
0.061875 0.061875 0.061875
0.108594 0.108594 0.108594
0.155313 0.155313 0.155313
0.202031 0.202031 0.202031
0.248750 0.248750 0.248750
0.000000 0.000000 0.000000
0.013437 0.013437 0.013437
0.060156 0.060156 0.060156
0.106875 0.106875 0.106875
0.153594 0.153594 0.153594
0.200313 0.200313 0.200313
0.247031 0.247031 0.247031
0.293750 0.293750 0.293750
0.340469 0.340469 0.340469
0.058437 0.058437 0.058437
0.105156 0.105156 0.105156
0.151875 0.151875 0.151875
0.198594 0.198594 0.198594
0.245313 0.245313 0.245313
0.292031 0.292031 0.292031
0.338750 0.338750 0.338750
0.385469 0.385469 0.385469
0.432187 0.432187 0.432187
0.150156 0.150156 0.150156
0.196875 0.196875 0.196875
0.243594 0.243594 0.243594
0.290312 0.290312 0.290312
0.337031 0.337031 0.337031
0.383750 0.383750 0.383750
0.430469 0.430469 0.430469
0.477187 0.477187 0.477187
0.523906 0.523906 0.523906
0.241875 0.241875 0.241875
0.288594 0.288594 0.288594
0.335312 0.335312 0.335312
0.382031 0.382031 0.382031
0.428750 0.428750 0.428750
0.475469 0.475469 0.475469
0.522187 0.522187 0.522187
0.568906 0.568906 0.568906
0.615625 0.615625 0.615625
0.333594 0.333594 0.333594
0.380312 0.380312 0.380312
0.427031 0.427031 0.427031
0.473750 0.473750 0.473750
0.520469 0.520469 0.520469
0.567187 0.567187 0.567187
0.613906 0.613906 0.613906
0.660625 0.660625 0.660625
0.707344 0.707344 0.707344
0.425312 0.425312 0.425312
0.472031 0.472031 0.472031
0.518750 0.518750 0.518750
0.565469 0.565469 0.565469
0.612187 0.612187 0.612187
0.658906 0.658906 0.658906
0.705625 0.705625 0.705625
0.752344 0.752344 0.752344
0.799063 0.799063 0.799063
0.517031 0.517031 0.517031
0.563750 0.563750 0.563750
0.610469 0.610469 0.610469
0.657188 0.657188 0.657188
0.703906 0.703906 0.703906
0.750625 0.750625 0.750625
0.797344 0.797344 0.797344
0.844062 0.844062 0.844062
0.890781 0.890781 0.890781
0.608750 0.608750 0.608750
0.655469 0.655469 0.655469
0.702187 0.702187 0.702187
0.748906 0.748906 0.748906
0.795625 0.795625 0.795625
0.842344 0.842344 0.842344
0.889063 0.889063 0.889063
0.935781 0.935781 0.935781
0.982500 0.982500 0.982500
0.000000 0.000000 0.000000
0.000000 0.000000 0.000000
0.000000 0.000000 0.000000
0.032969 0.032969 0.032969
0.079688 0.079688 0.079688
0.126406 0.126406 0.126406
0.173125 0.173125 0.173125
0.219844 0.219844 0.219844
0.266562 0.266562 0.266562
0.000000 0.000000 0.000000
0.031250 0.031250 0.031250
0.077969 0.077969 0.077969
0.124687 0.124687 0.124687
0.171406 0.171406 0.171406
0.218125 0.218125 0.218125
0.264844 0.264844 0.264844
0.311562 0.311562 0.311562
0.358281 0.358281 0.358281
0.076250 0.076250 0.076250
0.122969 0.122969 0.122969
0.169687 0.169687 0.169687
0.216406 0.216406 0.216406
0.263125 0.263125 0.263125
0.309844 0.309844 0.309844
0.356563 0.356563 0.356563
0.403281 0.403281 0.403281
0.450000 0.450000 0.450000
0.167969 0.167969 0.167969
0.214687 0.214687 0.214687
0.261406 0.261406 0.261406
0.308125 0.308125 0.308125
0.354844 0.354844 0.354844
0.401562 0.401562 0.401562
0.448281 0.448281 0.448281
0.495000 0.495000 0.495000
0.541719 0.541719 0.541719
0.259687 0.259687 0.259687
0.306406 0.306406 0.306406
0.353125 0.353125 0.353125
0.399844 0.399844 0.399844
0.446562 0.446562 0.446562
0.493281 0.493281 0.493281
0.540000 0.540000 0.540000
0.586719 0.586719 0.586719
0.633437 0.633437 0.633437
0.351406 0.351406 0.351406
0.398125 0.398125 0.398125
0.444844 0.444844 0.444844
0.491562 0.491562 0.491562
0.538281 0.538281 0.538281
0.585000 0.585000 0.585000
0.631719 0.631719 0.631719
0.678437 0.678437 0.678437
0.725156 0.725156 0.725156
0.443125 0.443125 0.443125
0.489844 0.489844 0.489844
0.536563 0.536563 0.536563
0.583281 0.583281 0.583281
0.630000 0.630000 0.630000
0.676719 0.676719 0.676719
0.723437 0.723437 0.723437
0.770156 0.770156 0.770156
0.816875 0.816875 0.816875
0.534844 0.534844 0.534844
0.581562 0.581562 0.581562
0.628281 0.628281 0.628281
0.675000 0.675000 0.675000
0.721719 0.721719 0.721719
0.768437 0.768437 0.768437
0.815156 0.815156 0.815156
0.861875 0.861875 0.861875
0.908594 0.908594 0.908594
0.626562 0.626562 0.626562
0.673281 0.673281 0.673281
0.720000 0.720000 0.720000
0.766719 0.766719 0.766719
0.813437 0.813437 0.813437
0.860156 0.860156 0.860156
0.906875 0.906875 0.906875
0.953594 0.953594 0.953594
1.000000 1.000000 1.000000
0.000000 0.000000 0.000000
0.000000 0.000000 0.000000
0.004063 0.004063 0.004063
0.050781 0.050781 0.050781
0.097500 0.097500 0.097500
0.144219 0.144219 0.144219
0.190938 0.190938 0.190938
0.237656 0.237656 0.237656
0.284375 0.284375 0.284375
0.002344 0.002344 0.002344
0.049063 0.049063 0.049063
0.095781 0.095781 0.095781
0.142500 0.142500 0.142500
0.189219 0.189219 0.189219
0.235938 0.235938 0.235938
0.282656 0.282656 0.282656
0.329375 0.329375 0.329375
0.376094 0.376094 0.376094
0.094063 0.094063 0.094063
0.140781 0.140781 0.140781
0.187500 0.187500 0.187500
0.234219 0.234219 0.234219
0.280938 0.280938 0.280938
0.327656 0.327656 0.327656
0.374375 0.374375 0.374375
0.421094 0.421094 0.421094
0.467813 0.467813 0.467813
0.185781 0.185781 0.185781
0.232500 0.232500 0.232500
0.279219 0.279219 0.279219
0.325937 0.325937 0.325937
0.372656 0.372656 0.372656
0.419375 0.419375 0.419375
0.466094 0.466094 0.466094
0.512813 0.512813 0.512813
0.559531 0.559531 0.559531
0.277500 0.277500 0.277500
0.324219 0.324219 0.324219
0.370937 0.370937 0.370937
0.417656 0.417656 0.417656
0.464375 0.464375 0.464375
0.511094 0.511094 0.511094
0.557812 0.557812 0.557812
0.604531 0.604531 0.604531
0.651250 0.651250 0.651250
0.369219 0.369219 0.369219
0.415937 0.415937 0.415937
0.462656 0.462656 0.462656
0.509375 0.509375 0.509375
0.556094 0.556094 0.556094
0.602812 0.602812 0.602812
0.649531 0.649531 0.649531
0.696250 0.696250 0.696250
0.742969 0.742969 0.742969
0.460938 0.460938 0.460938
0.507656 0.507656 0.507656
0.554375 0.554375 0.554375
0.601094 0.601094 0.601094
0.647812 0.647812 0.647812
0.694531 0.694531 0.694531
0.741250 0.741250 0.741250
0.787969 0.787969 0.787969
0.834687 0.834687 0.834687
0.552656 0.552656 0.552656
0.599375 0.599375 0.599375
0.646094 0.646094 0.646094
0.692813 0.692813 0.692813
0.739531 0.739531 0.739531
0.786250 0.786250 0.786250
0.832969 0.832969 0.832969
0.879687 0.879687 0.879687
0.926406 0.926406 0.926406
0.644375 0.644375 0.644375
0.691094 0.691094 0.691094
0.737812 0.737812 0.737812
0.784531 0.784531 0.784531
0.831250 0.831250 0.831250
0.877969 0.877969 0.877969
0.924687 0.924687 0.924687
0.971406 0.971406 0.971406
1.000000 1.000000 1.000000
0.000000 0.000000 0.000000
0.000000 0.000000 0.000000
0.021875 0.021875 0.021875
0.068594 0.068594 0.068594
0.115313 0.115313 0.115313
0.162031 0.162031 0.162031
0.208750 0.208750 0.208750
0.255469 0.255469 0.255469
0.302187 0.302187 0.302187
0.020156 0.020156 0.020156
0.066875 0.066875 0.066875
0.113594 0.113594 0.113594
0.160313 0.160313 0.160313
0.207031 0.207031 0.207031
0.253750 0.253750 0.253750
0.300469 0.300469 0.300469
0.347187 0.347187 0.347187
0.393906 0.393906 0.393906
0.111875 0.111875 0.111875
0.158594 0.158594 0.158594
0.205313 0.205313 0.205313
0.252031 0.252031 0.252031
0.298750 0.298750 0.298750
0.345469 0.345469 0.345469
0.392188 0.392188 0.392188
0.438906 0.438906 0.438906
0.485625 0.485625 0.485625
0.203594 0.203594 0.203594
0.250313 0.250313 0.250313
0.297031 0.297031 0.297031
0.343750 0.343750 0.343750
0.390469 0.390469 0.390469
0.437187 0.437187 0.437187
0.483906 0.483906 0.483906
0.530625 0.530625 0.530625
0.577344 0.577344 0.577344
0.295312 0.295312 0.295312
0.342031 0.342031 0.342031
0.388750 0.388750 0.388750
0.435469 0.435469 0.435469
0.482187 0.482187 0.482187
0.528906 0.528906 0.528906
0.575625 0.575625 0.575625
0.622344 0.622344 0.622344
0.669063 0.669063 0.669063
0.387031 0.387031 0.387031
0.433750 0.433750 0.433750
0.480469 0.480469 0.480469
0.527187 0.527187 0.527187
0.573906 0.573906 0.573906
0.620625 0.620625 0.620625
0.667344 0.667344 0.667344
0.714062 0.714062 0.714062
0.760781 0.760781 0.760781
0.478750 0.478750 0.478750
0.525469 0.525469 0.525469
0.572187 0.572187 0.572187
0.618906 0.618906 0.618906
0.665625 0.665625 0.665625
0.712344 0.712344 0.712344
0.759062 0.759062 0.759062
0.805781 0.805781 0.805781
0.852500 0.852500 0.852500
0.570469 0.570469 0.570469
0.617188 0.617188 0.617188
0.663906 0.663906 0.663906
0.710625 0.710625 0.710625
0.757344 0.757344 0.757344
0.804062 0.804062 0.804062
0.850781 0.850781 0.850781
0.897500 0.897500 0.897500
0.944219 0.944219 0.944219
0.662187 0.662187 0.662187
0.708906 0.708906 0.708906
0.755625 0.755625 0.755625
0.802344 0.802344 0.802344
0.849062 0.849062 0.849062
0.895781 0.895781 0.895781
0.942500 0.942500 0.942500
0.989219 0.989219 0.989219
1.000000 1.000000 1.000000
0.000000 0.000000 0.000000
0.000000 0.000000 0.000000
0.039688 0.039688 0.039688
0.086406 0.086406 0.086406
0.133125 0.133125 0.133125
0.179844 0.179844 0.179844
0.226562 0.226562 0.226562
0.273281 0.273281 0.273281
0.320000 0.320000 0.320000
0.037969 0.037969 0.037969
0.084687 0.084687 0.084687
0.131406 0.131406 0.131406
0.178125 0.178125 0.178125
0.224844 0.224844 0.224844
0.271562 0.271562 0.271562
0.318281 0.318281 0.318281
0.365000 0.365000 0.365000
0.411719 0.411719 0.411719
0.129687 0.129687 0.129687
0.176406 0.176406 0.176406
0.223125 0.223125 0.223125
0.269844 0.269844 0.269844
0.316563 0.316563 0.316563
0.363281 0.363281 0.363281
0.410000 0.410000 0.410000
0.456719 0.456719 0.456719
0.503437 0.503437 0.503437
0.221406 0.221406 0.221406
0.268125 0.268125 0.268125
0.314844 0.314844 0.314844
0.361563 0.361563 0.361563
0.408281 0.408281 0.408281
0.455000 0.455000 0.455000
0.501719 0.501719 0.501719
0.548438 0.548438 0.548438
0.595156 0.595156 0.595156
0.313125 0.313125 0.313125
0.359844 0.359844 0.359844
0.406562 0.406562 0.406562
0.453281 0.453281 0.453281
0.500000 0.500000 0.500000
0.546719 0.546719 0.546719
0.593437 0.593437 0.593437
0.640156 0.640156 0.640156
0.686875 0.686875 0.686875
0.404844 0.404844 0.404844
0.451562 0.451562 0.451562
0.498281 0.498281 0.498281
0.545000 0.545000 0.545000
0.591719 0.591719 0.591719
0.638437 0.638437 0.638437
0.685156 0.685156 0.685156
0.731875 0.731875 0.731875
0.778594 0.778594 0.778594
0.496562 0.496562 0.496562
0.543281 0.543281 0.543281
0.590000 0.590000 0.590000
0.636719 0.636719 0.636719
0.683438 0.683438 0.683438
0.730156 0.730156 0.730156
0.776875 0.776875 0.776875
0.823594 0.823594 0.823594
0.870313 0.870313 0.870313
0.588281 0.588281 0.588281
0.635000 0.635000 0.635000
0.681719 0.681719 0.681719
0.728438 0.728438 0.728438
0.775156 0.775156 0.775156
0.821875 0.821875 0.821875
0.868594 0.868594 0.868594
0.915313 0.915313 0.915313
0.962031 0.962031 0.962031
0.680000 0.680000 0.680000
0.726719 0.726719 0.726719
0.773438 0.773438 0.773438
0.820156 0.820156 0.820156
0.866875 0.866875 0.866875
0.913594 0.913594 0.913594
0.960313 0.960313 0.960313
1.000000 1.000000 1.000000
1.000000 1.000000 1.000000
0.000000 0.000000 0.000000
0.010781 0.010781 0.010781
0.057500 0.057500 0.057500
0.104219 0.104219 0.104219
0.150938 0.150938 0.150938
0.197656 0.197656 0.197656
0.244375 0.244375 0.244375
0.291094 0.291094 0.291094
0.337812 0.337812 0.337812
0.055781 0.055781 0.055781
0.102500 0.102500 0.102500
0.149219 0.149219 0.149219
0.195938 0.195938 0.195938
0.242656 0.242656 0.242656
0.289375 0.289375 0.289375
0.336094 0.336094 0.336094
0.382812 0.382812 0.382812
0.429531 0.429531 0.429531
0.147500 0.147500 0.147500
0.194219 0.194219 0.194219
0.240937 0.240937 0.240937
0.287656 0.287656 0.287656
0.334375 0.334375 0.334375
0.381094 0.381094 0.381094
0.427813 0.427813 0.427813
0.474531 0.474531 0.474531
0.521250 0.521250 0.521250
0.239219 0.239219 0.239219
0.285937 0.285937 0.285937
0.332656 0.332656 0.332656
0.379375 0.379375 0.379375
0.426094 0.426094 0.426094
0.472812 0.472812 0.472812
0.519531 0.519531 0.519531
0.566250 0.566250 0.566250
0.612969 0.612969 0.612969
0.330937 0.330937 0.330937
0.377656 0.377656 0.377656
0.424375 0.424375 0.424375
0.471094 0.471094 0.471094
0.517813 0.517813 0.517813
0.564531 0.564531 0.564531
0.611250 0.611250 0.611250
0.657969 0.657969 0.657969
0.704688 0.704688 0.704688
0.422656 0.422656 0.422656
0.469375 0.469375 0.469375
0.516094 0.516094 0.516094
0.562813 0.562813 0.562813
0.609531 0.609531 0.609531
0.656250 0.656250 0.656250
0.702969 0.702969 0.702969
0.749687 0.749687 0.749687
0.796406 0.796406 0.796406
0.514375 0.514375 0.514375
0.561094 0.561094 0.561094
0.607813 0.607813 0.607813
0.654531 0.654531 0.654531
0.701250 0.701250 0.701250
0.747969 0.747969 0.747969
0.794687 0.794687 0.794687
0.841406 0.841406 0.841406
0.888125 0.888125 0.888125
0.606094 0.606094 0.606094
0.652813 0.652813 0.652813
0.699531 0.699531 0.699531
0.746250 0.746250 0.746250
0.792969 0.792969 0.792969
0.839688 0.839688 0.839688
0.886406 0.886406 0.886406
0.933125 0.933125 0.933125
0.979844 0.979844 0.979844
0.697812 0.697812 0.697812
0.744531 0.744531 0.744531
0.791250 0.791250 0.791250
0.837969 0.837969 0.837969
0.884687 0.884687 0.884687
0.931406 0.931406 0.931406
0.978125 0.978125 0.978125
1.000000 1.000000 1.000000
1.000000 1.000000 1.000000
0.000000 0.000000 0.000000
0.028594 0.028594 0.028594
0.075313 0.075313 0.075313
0.122031 0.122031 0.122031
0.168750 0.168750 0.168750
0.215469 0.215469 0.215469
0.262188 0.262188 0.262188
0.308906 0.308906 0.308906
0.355625 0.355625 0.355625
0.073594 0.073594 0.073594
0.120312 0.120312 0.120312
0.167031 0.167031 0.167031
0.213750 0.213750 0.213750
0.260469 0.260469 0.260469
0.307188 0.307188 0.307188
0.353906 0.353906 0.353906
0.400625 0.400625 0.400625
0.447344 0.447344 0.447344
0.165313 0.165313 0.165313
0.212031 0.212031 0.212031
0.258750 0.258750 0.258750
0.305469 0.305469 0.305469
0.352188 0.352188 0.352188
0.398906 0.398906 0.398906
0.445625 0.445625 0.445625
0.492344 0.492344 0.492344
0.539062 0.539062 0.539062
0.257031 0.257031 0.257031
0.303750 0.303750 0.303750
0.350469 0.350469 0.350469
0.397188 0.397188 0.397188
0.443906 0.443906 0.443906
0.490625 0.490625 0.490625
0.537344 0.537344 0.537344
0.584063 0.584063 0.584063
0.630781 0.630781 0.630781
0.348750 0.348750 0.348750
0.395469 0.395469 0.395469
0.442187 0.442187 0.442187
0.488906 0.488906 0.488906
0.535625 0.535625 0.535625
0.582344 0.582344 0.582344
0.629062 0.629062 0.629062
0.675781 0.675781 0.675781
0.722500 0.722500 0.722500
0.440469 0.440469 0.440469
0.487187 0.487187 0.487187
0.533906 0.533906 0.533906
0.580625 0.580625 0.580625
0.627344 0.627344 0.627344
0.674063 0.674063 0.674063
0.720781 0.720781 0.720781
0.767500 0.767500 0.767500
0.814219 0.814219 0.814219
0.532187 0.532187 0.532187
0.578906 0.578906 0.578906
0.625625 0.625625 0.625625
0.672344 0.672344 0.672344
0.719063 0.719063 0.719063
0.765781 0.765781 0.765781
0.812500 0.812500 0.812500
0.859219 0.859219 0.859219
0.905937 0.905937 0.905937
0.623906 0.623906 0.623906
0.670625 0.670625 0.670625
0.717344 0.717344 0.717344
0.764063 0.764063 0.764063
0.810781 0.810781 0.810781
0.857500 0.857500 0.857500
0.904219 0.904219 0.904219
0.950937 0.950937 0.950937
0.997656 0.997656 0.997656
0.715625 0.715625 0.715625
0.762344 0.762344 0.762344
0.809063 0.809063 0.809063
0.855781 0.855781 0.855781
0.902500 0.902500 0.902500
0.949219 0.949219 0.949219
0.995938 0.995938 0.995938
1.000000 1.000000 1.000000
1.000000 1.000000 1.000000
0.000000 0.000000 0.000000
0.046406 0.046406 0.046406
0.093125 0.093125 0.093125
0.139844 0.139844 0.139844
0.186562 0.186562 0.186562
0.233281 0.233281 0.233281
0.280000 0.280000 0.280000
0.326719 0.326719 0.326719
0.373437 0.373437 0.373437
0.091406 0.091406 0.091406
0.138125 0.138125 0.138125
0.184844 0.184844 0.184844
0.231563 0.231563 0.231563
0.278281 0.278281 0.278281
0.325000 0.325000 0.325000
0.371719 0.371719 0.371719
0.418437 0.418437 0.418437
0.465156 0.465156 0.465156
0.183125 0.183125 0.183125
0.229844 0.229844 0.229844
0.276562 0.276562 0.276562
0.323281 0.323281 0.323281
0.370000 0.370000 0.370000
0.416719 0.416719 0.416719
0.463438 0.463438 0.463438
0.510156 0.510156 0.510156
0.556875 0.556875 0.556875
0.274844 0.274844 0.274844
0.321563 0.321563 0.321563
0.368281 0.368281 0.368281
0.415000 0.415000 0.415000
0.461719 0.461719 0.461719
0.508438 0.508438 0.508438
0.555156 0.555156 0.555156
0.601875 0.601875 0.601875
0.648594 0.648594 0.648594
0.366563 0.366563 0.366563
0.413281 0.413281 0.413281
0.460000 0.460000 0.460000
0.506719 0.506719 0.506719
0.553437 0.553437 0.553437
0.600156 0.600156 0.600156
0.646875 0.646875 0.646875
0.693594 0.693594 0.693594
0.740313 0.740313 0.740313
0.458281 0.458281 0.458281
0.505000 0.505000 0.505000
0.551719 0.551719 0.551719
0.598437 0.598437 0.598437
0.645156 0.645156 0.645156
0.691875 0.691875 0.691875
0.738594 0.738594 0.738594
0.785312 0.785312 0.785312
0.832031 0.832031 0.832031
0.550000 0.550000 0.550000
0.596719 0.596719 0.596719
0.643437 0.643437 0.643437
0.690156 0.690156 0.690156
0.736875 0.736875 0.736875
0.783594 0.783594 0.783594
0.830313 0.830313 0.830313
0.877031 0.877031 0.877031
0.923750 0.923750 0.923750
0.641719 0.641719 0.641719
0.688438 0.688438 0.688438
0.735156 0.735156 0.735156
0.781875 0.781875 0.781875
0.828594 0.828594 0.828594
0.875313 0.875313 0.875313
0.922031 0.922031 0.922031
0.968750 0.968750 0.968750
1.000000 1.000000 1.000000
0.733437 0.733437 0.733437
0.780156 0.780156 0.780156
0.826875 0.826875 0.826875
0.873594 0.873594 0.873594
0.920312 0.920312 0.920312
0.967031 0.967031 0.967031
1.000000 1.000000 1.000000
1.000000 1.000000 1.000000
1.000000 1.000000 1.000000
0.017500 0.017500 0.017500
0.064219 0.064219 0.064219
0.110937 0.110937 0.110937
0.157656 0.157656 0.157656
0.204375 0.204375 0.204375
0.251094 0.251094 0.251094
0.297812 0.297812 0.297812
0.344531 0.344531 0.344531
0.391250 0.391250 0.391250
0.109219 0.109219 0.109219
0.155938 0.155938 0.155938
0.202656 0.202656 0.202656
0.249375 0.249375 0.249375
0.296094 0.296094 0.296094
0.342812 0.342812 0.342812
0.389531 0.389531 0.389531
0.436250 0.436250 0.436250
0.482969 0.482969 0.482969
0.200937 0.200937 0.200937
0.247656 0.247656 0.247656
0.294375 0.294375 0.294375
0.341094 0.341094 0.341094
0.387813 0.387813 0.387813
0.434531 0.434531 0.434531
0.481250 0.481250 0.481250
0.527969 0.527969 0.527969
0.574688 0.574688 0.574688
0.292656 0.292656 0.292656
0.339375 0.339375 0.339375
0.386094 0.386094 0.386094
0.432812 0.432812 0.432812
0.479531 0.479531 0.479531
0.526250 0.526250 0.526250
0.572969 0.572969 0.572969
0.619687 0.619687 0.619687
0.666406 0.666406 0.666406
0.384375 0.384375 0.384375
0.431094 0.431094 0.431094
0.477812 0.477812 0.477812
0.524531 0.524531 0.524531
0.571250 0.571250 0.571250
0.617969 0.617969 0.617969
0.664687 0.664687 0.664687
0.711406 0.711406 0.711406
0.758125 0.758125 0.758125
0.476094 0.476094 0.476094
0.522813 0.522813 0.522813
0.569531 0.569531 0.569531
0.616250 0.616250 0.616250
0.662969 0.662969 0.662969
0.709687 0.709687 0.709687
0.756406 0.756406 0.756406
0.803125 0.803125 0.803125
0.849844 0.849844 0.849844
0.567813 0.567813 0.567813
0.614531 0.614531 0.614531
0.661250 0.661250 0.661250
0.707969 0.707969 0.707969
0.754687 0.754687 0.754687
0.801406 0.801406 0.801406
0.848125 0.848125 0.848125
0.894844 0.894844 0.894844
0.941562 0.941562 0.941562
0.659531 0.659531 0.659531
0.706250 0.706250 0.706250
0.752969 0.752969 0.752969
0.799687 0.799687 0.799687
0.846406 0.846406 0.846406
0.893125 0.893125 0.893125
0.939844 0.939844 0.939844
0.986563 0.986563 0.986563
1.000000 1.000000 1.000000
0.751250 0.751250 0.751250
0.797969 0.797969 0.797969
0.844687 0.844687 0.844687
0.891406 0.891406 0.891406
0.938125 0.938125 0.938125
0.984844 0.984844 0.984844
1.000000 1.000000 1.000000
1.000000 1.000000 1.000000
1.000000 1.000000 1.000000
