luts/teal_orange.cube
# teal_orange — generated by luts/generate_luts.py. Do not edit by hand.
TITLE "teal_orange"
LUT_3D_SIZE 9
DOMAIN_MIN 0.0 0.0 0.0
DOMAIN_MAX 1.0 1.0 1.0

0.000000 0.000000 0.060000
0.078737 0.000000 0.055515
0.207475 0.000000 0.051030
0.336213 0.000000 0.046545
0.464950 0.000000 0.042060
0.593688 0.000000 0.037575
0.722425 0.000000 0.033090
0.851163 0.000000 0.028605
0.979900 0.000000 0.024120
0.000000 0.116468 0.051195
0.086075 0.117215 0.046710
0.214812 0.117962 0.042225
0.343550 0.118710 0.037740
0.472287 0.119457 0.033255
0.601025 0.120205 0.028770
0.729762 0.120953 0.024285
0.858500 0.121700 0.019800
0.987237 0.122448 0.015315
0.000000 0.242935 0.042390
0.093412 0.243682 0.037905
0.222150 0.244430 0.033420
0.350888 0.245177 0.028935
0.479625 0.245925 0.024450
0.608363 0.246672 0.019965
0.737100 0.247420 0.015480
0.865838 0.248168 0.010995
0.994575 0.248915 0.006510
0.000000 0.369403 0.033585
0.100750 0.370150 0.029100
0.229488 0.370897 0.024615
0.358225 0.371645 0.020130
0.486963 0.372393 0.015645
0.615700 0.373140 0.011160
0.744437 0.373887 0.006675
0.873175 0.374635 0.002190
1.000000 0.375383 0.000000
0.000000 0.495870 0.024780
0.108088 0.496617 0.020295
0.236825 0.497365 0.015810
0.365563 0.498113 0.011325
0.494300 0.498860 0.006840
0.623038 0.499607 0.002355
0.751775 0.500355 0.000000
0.880513 0.501103 0.000000
1.000000 0.501850 0.000000
0.000000 0.622337 0.015975
0.115425 0.623085 0.011490
0.244163 0.623833 0.007005
0.372900 0.624580 0.002520
0.501637 0.625328 0.000000
0.630375 0.626075 0.000000
0.759112 0.626822 0.000000
0.887850 0.627570 0.000000
1.000000 0.628317 0.000000
0.000000 0.748805 0.007170
0.122762 0.749552 0.002685
0.251500 0.750300 0.000000
0.380238 0.751047 0.000000
0.508975 0.751795 0.000000
0.637713 0.752543 0.000000
0.766450 0.753290 0.000000
0.895188 0.754038 0.000000
1.000000 0.754785 0.000000
0.001362 0.875273 0.000000
0.130100 0.876020 0.000000
0.258837 0.876768 0.000000
0.387575 0.877515 0.000000
0.516312 0.878262 0.000000
0.645050 0.879010 0.000000
0.773787 0.879757 0.000000
0.902525 0.880505 0.000000
1.000000 0.881252 0.000000
0.008700 1.000000 0.000000
0.137437 1.000000 0.000000
0.266175 1.000000 0.000000
0.394912 1.000000 0.000000
0.523650 1.000000 0.000000
0.652388 1.000000 0.000000
0.781125 1.000000 0.000000
0.909863 1.000000 0.000000
1.000000 1.000000 0.000000
0.000000 0.000000 0.183290
0.080162 0.000000 0.178805
0.208900 0.000000 0.174320
0.337637 0.000000 0.169835
0.466375 0.000000 0.165350
0.595113 0.000000 0.160865
0.723850 0.000000 0.156380
0.852588 0.000000 0.151895
0.981325 0.000000 0.147410
0.000000 0.116752 0.174485
0.087500 0.117500 0.170000
0.216237 0.118248 0.165515
0.344975 0.118995 0.161030
0.473712 0.119743 0.156545
0.602450 0.120490 0.152060
0.731187 0.121237 0.147575
0.859925 0.121985 0.143090
0.988662 0.122732 0.138605
0.000000 0.243220 0.165680
0.094837 0.243968 0.161195
0.223575 0.244715 0.156710
0.352312 0.245463 0.152225
0.481050 0.246210 0.147740
0.609788 0.246957 0.143255
0.738525 0.247705 0.138770
0.867263 0.248452 0.134285
0.996000 0.249200 0.129800
0.000000 0.369688 0.156875
0.102175 0.370435 0.152390
0.230912 0.371183 0.147905
0.359650 0.371930 0.143420
0.488387 0.372677 0.138935
0.617125 0.373425 0.134450
0.745862 0.374173 0.129965
0.874600 0.374920 0.125480
1.000000 0.375667 0.120995
0.000000 0.496155 0.148070
0.109512 0.496903 0.143585
0.238250 0.497650 0.139100
0.366988 0.498397 0.134615
0.495725 0.499145 0.130130
0.624463 0.499893 0.125645
0.753200 0.500640 0.121160
0.881938 0.501387 0.116675
1.000000 0.502135 0.112190
0.000000 0.622622 0.139265
0.116850 0.623370 0.134780
0.245587 0.624117 0.130295
0.374325 0.624865 0.125810
0.503062 0.625613 0.121325
0.631800 0.626360 0.116840
0.760537 0.627108 0.112355
0.889275 0.627855 0.107870
1.000000 0.628602 0.103385
0.000000 0.749090 0.130460
0.124187 0.749838 0.125975
0.252925 0.750585 0.121490
0.381663 0.751332 0.117005
0.510400 0.752080 0.112520
0.639138 0.752827 0.108035
0.767875 0.753575 0.103550
0.896613 0.754323 0.099065
1.000000 0.755070 0.094580
0.002787 0.875557 0.121655
0.131525 0.876305 0.117170
0.260263 0.877053 0.112685
0.389000 0.877800 0.108200
0.517737 0.878548 0.103715
0.646475 0.879295 0.099230
0.775212 0.880042 0.094745
0.903950 0.880790 0.090260
1.000000 0.881537 0.085775
0.010125 1.000000 0.112850
0.138862 1.000000 0.108365
0.267600 1.000000 0.103880
0.396338 1.000000 0.099395
0.525075 1.000000 0.094910
0.653813 1.000000 0.090425
0.782550 1.000000 0.085940
0.911288 1.000000 0.081455
1.000000 1.000000 0.076970
0.000000 0.000000 0.306580
0.081588 0.000000 0.302095
0.210325 0.000000 0.297610
0.339062 0.000000 0.293125
0.467800 0.000000 0.288640
0.596537 0.000000 0.284155
0.725275 0.000000 0.279670
0.854012 0.000000 0.275185
0.982750 0.000000 0.270700
0.000000 0.117038 0.297775
0.088925 0.117785 0.293290
0.217663 0.118532 0.288805
0.346400 0.119280 0.284320
0.475137 0.120027 0.279835
0.603875 0.120775 0.275350
0.732612 0.121523 0.270865
0.861350 0.122270 0.266380
0.990088 0.123018 0.261895
0.000000 0.243505 0.288970
0.096263 0.244253 0.284485
0.225000 0.245000 0.280000
0.353737 0.245748 0.275515
0.482475 0.246495 0.271030
0.611213 0.247243 0.266545
0.739950 0.247990 0.262060
0.868688 0.248738 0.257575
0.997425 0.249485 0.253090
0.000000 0.369972 0.280165
0.103600 0.370720 0.275680
0.232338 0.371468 0.271195
0.361075 0.372215 0.266710
0.489812 0.372962 0.262225
0.618550 0.373710 0.257740
0.747287 0.374457 0.253255
0.876025 0.375205 0.248770
1.000000 0.375953 0.244285
0.000000 0.496440 0.271360
0.110937 0.497188 0.266875
0.239675 0.497935 0.262390
0.368413 0.498683 0.257905
0.497150 0.499430 0.253420
0.625888 0.500178 0.248935
0.754625 0.500925 0.244450
0.883363 0.501672 0.239965
1.000000 0.502420 0.235480
0.000000 0.622907 0.262555
0.118275 0.623655 0.258070
0.247012 0.624402 0.253585
0.375750 0.625150 0.249100
0.504487 0.625897 0.244615
0.633225 0.626645 0.240130
0.761962 0.627393 0.235645
0.890700 0.628140 0.231160
1.000000 0.628888 0.226675
0.000000 0.749375 0.253750
0.125612 0.750123 0.249265
0.254350 0.750870 0.244780
0.383087 0.751618 0.240295
0.511825 0.752365 0.235810
0.640563 0.753112 0.231325
0.769300 0.753860 0.226840
0.898038 0.754607 0.222355
1.000000 0.755355 0.217870
0.004212 0.875842 0.244945
0.132950 0.876590 0.240460
0.261688 0.877337 0.235975
0.390425 0.878085 0.231490
0.519162 0.878833 0.227005
0.647900 0.879580 0.222520
0.776637 0.880328 0.218035
0.905375 0.881075 0.213550
1.000000 0.881822 0.209065
0.011550 1.000000 0.236140
0.140288 1.000000 0.231655
0.269025 1.000000 0.227170
0.397763 1.000000 0.222685
0.526500 1.000000 0.218200
0.655238 1.000000 0.213715
0.783975 1.000000 0.209230
0.912713 1.000000 0.204745
1.000000 1.000000 0.200260
0.000000 0.000000 0.429870
0.083012 0.000000 0.425385
0.211750 0.000000 0.420900
0.340487 0.000000 0.416415
0.469225 0.000000 0.411930
0.597962 0.000000 0.407445
0.726700 0.000000 0.402960
0.855437 0.000000 0.398475
0.984175 0.000000 0.393990
0.000000 0.117322 0.421065
0.090350 0.118070 0.416580
0.219087 0.118818 0.412095
0.347825 0.119565 0.407610
0.476562 0.120313 0.403125
0.605300 0.121060 0.398640
0.734038 0.121807 0.394155
0.862775 0.122555 0.389670
0.991513 0.123302 0.385185
0.000000 0.243790 0.412260
0.097687 0.244537 0.407775
0.226425 0.245285 0.403290
0.355162 0.246032 0.398805
0.483900 0.246780 0.394320
0.612637 0.247528 0.389835
0.741375 0.248275 0.385350
0.870112 0.249023 0.380865
0.998850 0.249770 0.376380
0.000000 0.370258 0.403455
0.105025 0.371005 0.398970
0.233763 0.371752 0.394485
0.362500 0.372500 0.390000
0.491237 0.373248 0.385515
0.619975 0.373995 0.381030
0.748713 0.374742 0.376545
0.877450 0.375490 0.372060
1.000000 0.376238 0.367575
0.000000 0.496725 0.394650
0.112363 0.497472 0.390165
0.241100 0.498220 0.385680
0.369837 0.498968 0.381195
0.498575 0.499715 0.376710
0.627312 0.500463 0.372225
0.756050 0.501210 0.367740
0.884787 0.501957 0.363255
1.000000 0.502705 0.358770
0.000000 0.623193 0.385845
0.119700 0.623940 0.381360
0.248438 0.624687 0.376875
0.377175 0.625435 0.372390
0.505912 0.626182 0.367905
0.634650 0.626930 0.363420
0.763387 0.627677 0.358935
0.892125 0.628425 0.354450
1.000000 0.629173 0.349965
0.000000 0.749660 0.377040
0.127037 0.750408 0.372555
0.255775 0.751155 0.368070
0.384512 0.751903 0.363585
0.513250 0.752650 0.359100
0.641987 0.753397 0.354615
0.770725 0.754145 0.350130
0.899463 0.754892 0.345645
1.000000 0.755640 0.341160
0.005637 0.876127 0.368235
0.134375 0.876875 0.363750
0.263112 0.877622 0.359265
0.391850 0.878370 0.354780
0.520587 0.879117 0.350295
0.649325 0.879865 0.345810
0.778062 0.880613 0.341325
0.906800 0.881360 0.336840
1.000000 0.882108 0.332355
0.012975 1.000000 0.359430
0.141712 1.000000 0.354945
0.270450 1.000000 0.350460
0.399187 1.000000 0.345975
0.527925 1.000000 0.341490
0.656663 1.000000 0.337005
0.785400 1.000000 0.332520
0.914138 1.000000 0.328035
1.000000 1.000000 0.323550
0.000000 0.000000 0.553160
0.084437 0.000000 0.548675
0.213175 0.000000 0.544190
0.341913 0.000000 0.539705
0.470650 0.000000 0.535220
0.599387 0.000000 0.530735
0.728125 0.000000 0.526250
0.856862 0.000000 0.521765
0.985600 0.000000 0.517280
0.000000 0.117608 0.544355
0.091775 0.118355 0.539870
0.220513 0.119103 0.535385
0.349250 0.119850 0.530900
0.477988 0.120597 0.526415
0.606725 0.121345 0.521930
0.735463 0.122093 0.517445
0.864200 0.122840 0.512960
0.992938 0.123588 0.508475
0.000000 0.244075 0.535550
0.099112 0.244822 0.531065
0.227850 0.245570 0.526580
0.356588 0.246317 0.522095
0.485325 0.247065 0.517610
0.614062 0.247812 0.513125
0.742800 0.248560 0.508640
0.871537 0.249307 0.504155
1.000000 0.250055 0.499670
0.000000 0.370542 0.526745
0.106450 0.371290 0.522260
0.235187 0.372038 0.517775
0.363925 0.372785 0.513290
0.492663 0.373532 0.508805
0.621400 0.374280 0.504320
0.750138 0.375028 0.499835
0.878875 0.375775 0.495350
1.000000 0.376522 0.490865
0.000000 0.497010 0.517940
0.113787 0.497758 0.513455
0.242525 0.498505 0.508970
0.371262 0.499252 0.504485
0.500000 0.500000 0.500000
0.628737 0.500748 0.495515
0.757475 0.501495 0.491030
0.886212 0.502243 0.486545
1.000000 0.502990 0.482060
0.000000 0.623478 0.509135
0.121125 0.624225 0.504650
0.249862 0.624973 0.500165
0.378600 0.625720 0.495680
0.507337 0.626467 0.491195
0.636075 0.627215 0.486710
0.764813 0.627962 0.482225
0.893550 0.628710 0.477740
1.000000 0.629458 0.473255
0.000000 0.749945 0.500330
0.128463 0.750692 0.495845
0.257200 0.751440 0.491360
0.385937 0.752188 0.486875
0.514675 0.752935 0.482390
0.643412 0.753683 0.477905
0.772150 0.754430 0.473420
0.900888 0.755178 0.468935
1.000000 0.755925 0.464450
0.007063 0.876413 0.491525
0.135800 0.877160 0.487040
0.264537 0.877907 0.482555
0.393275 0.878655 0.478070
0.522012 0.879402 0.473585
0.650750 0.880150 0.469100
0.779487 0.880897 0.464615
0.908225 0.881645 0.460130
1.000000 0.882393 0.455645
0.014400 1.000000 0.482720
0.143138 1.000000 0.478235
0.271875 1.000000 0.473750
0.400612 1.000000 0.469265
0.529350 1.000000 0.464780
0.658088 1.000000 0.460295
0.786825 1.000000 0.455810
0.915563 1.000000 0.451325
1.000000 1.000000 0.446840
0.000000 0.000000 0.676450
0.085862 0.000000 0.671965
0.214600 0.000000 0.667480
0.343338 0.000000 0.662995
0.472075 0.000000 0.658510
0.600812 0.000000 0.654025
0.729550 0.000000 0.649540
0.858287 0.000000 0.645055
0.987025 0.000000 0.640570
0.000000 0.117892 0.667645
0.093200 0.118640 0.663160
0.221938 0.119387 0.658675
0.350675 0.120135 0.654190
0.479413 0.120883 0.649705
0.608150 0.121630 0.645220
0.736888 0.122378 0.640735
0.865625 0.123125 0.636250
0.994363 0.123872 0.631765
0.000000 0.244360 0.658840
0.100538 0.245108 0.654355
0.229275 0.245855 0.649870
0.358013 0.246603 0.645385
0.486750 0.247350 0.640900
0.615487 0.248097 0.636415
0.744225 0.248845 0.631930
0.872962 0.249592 0.627445
1.000000 0.250340 0.622960
0.000000 0.370827 0.650035
0.107875 0.371575 0.645550
0.236613 0.372323 0.641065
0.365350 0.373070 0.636580
0.494088 0.373818 0.632095
0.622825 0.374565 0.627610
0.751563 0.375312 0.623125
0.880300 0.376060 0.618640
1.000000 0.376808 0.614155
0.000000 0.497295 0.641230
0.115212 0.498042 0.636745
0.243950 0.498790 0.632260
0.372688 0.499538 0.627775
0.501425 0.500285 0.623290
0.630162 0.501032 0.618805
0.758900 0.501780 0.614320
0.887637 0.502528 0.609835
1.000000 0.503275 0.605350
0.000000 0.623762 0.632425
0.122550 0.624510 0.627940
0.251287 0.625258 0.623455
0.380025 0.626005 0.618970
0.508763 0.626753 0.614485
0.637500 0.627500 0.610000
0.766238 0.628247 0.605515
0.894975 0.628995 0.601030
1.000000 0.629742 0.596545
0.001150 0.750230 0.623620
0.129887 0.750977 0.619135
0.258625 0.751725 0.614650
0.387362 0.752472 0.610165
0.516100 0.753220 0.605680
0.644837 0.753968 0.601195
0.773575 0.754715 0.596710
0.902312 0.755463 0.592225
1.000000 0.756210 0.587740
0.008488 0.876698 0.614815
0.137225 0.877445 0.610330
0.265962 0.878193 0.605845
0.394700 0.878940 0.601360
0.523438 0.879687 0.596875
0.652175 0.880435 0.592390
0.780913 0.881182 0.587905
0.909650 0.881930 0.583420
1.000000 0.882678 0.578935
0.015825 1.000000 0.606010
0.144563 1.000000 0.601525
0.273300 1.000000 0.597040
0.402037 1.000000 0.592555
0.530775 1.000000 0.588070
0.659512 1.000000 0.583585
0.788250 1.000000 0.579100
0.916987 1.000000 0.574615
1.000000 1.000000 0.570130
0.000000 0.000000 0.799740
0.087287 0.000000 0.795255
0.216025 0.000000 0.790770
0.344762 0.000000 0.786285
0.473500 0.000000 0.781800
0.602237 0.000000 0.777315
0.730975 0.000000 0.772830
0.859712 0.000000 0.768345
0.988450 0.000000 0.763860
0.000000 0.118178 0.790935
0.094625 0.118925 0.786450
0.223362 0.119673 0.781965
0.352100 0.120420 0.777480
0.480838 0.121167 0.772995
0.609575 0.121915 0.768510
0.738313 0.122663 0.764025
0.867050 0.123410 0.759540
0.995788 0.124158 0.755055
0.000000 0.244645 0.782130
0.101962 0.245393 0.777645
0.230700 0.246140 0.773160
0.359438 0.246888 0.768675
0.488175 0.247635 0.764190
0.616912 0.248383 0.759705
0.745650 0.249130 0.755220
0.874387 0.249878 0.750735
1.000000 0.250625 0.746250
0.000000 0.371113 0.773325
0.109300 0.371860 0.768840
0.238038 0.372607 0.764355
0.366775 0.373355 0.759870
0.495513 0.374103 0.755385
0.624250 0.374850 0.750900
0.752988 0.375597 0.746415
0.881725 0.376345 0.741930
1.000000 0.377092 0.737445
0.000000 0.497580 0.764520
0.116638 0.498327 0.760035
0.245375 0.499075 0.755550
0.374113 0.499823 0.751065
0.502850 0.500570 0.746580
0.631587 0.501317 0.742095
0.760325 0.502065 0.737610
0.889062 0.502812 0.733125
1.000000 0.503560 0.728640
0.000000 0.624047 0.755715
0.123975 0.624795 0.751230
0.252713 0.625543 0.746745
0.381450 0.626290 0.742260
0.510188 0.627038 0.737775
0.638925 0.627785 0.733290
0.767663 0.628533 0.728805
0.896400 0.629280 0.724320
1.000000 0.630027 0.719835
0.002575 0.750515 0.746910
0.131312 0.751262 0.742425
0.260050 0.752010 0.737940
0.388788 0.752757 0.733455
0.517525 0.753505 0.728970
0.646262 0.754252 0.724485
0.775000 0.755000 0.720000
0.903737 0.755748 0.715515
1.000000 0.756495 0.711030
0.009913 0.876982 0.738105
0.138650 0.877730 0.733620
0.267388 0.878478 0.729135
0.396125 0.879225 0.724650
0.524863 0.879973 0.720165
0.653600 0.880720 0.715680
0.782338 0.881467 0.711195
0.911075 0.882215 0.706710
1.000000 0.882962 0.702225
0.017250 1.000000 0.729300
0.145987 1.000000 0.724815
0.274725 1.000000 0.720330
0.403463 1.000000 0.715845
0.532200 1.000000 0.711360
0.660937 1.000000 0.706875
0.789675 1.000000 0.702390
0.918412 1.000000 0.697905
1.000000 1.000000 0.693420
0.000000 0.000000 0.923030
0.088712 0.000000 0.918545
0.217450 0.000000 0.914060
0.346187 0.000000 0.909575
0.474925 0.000000 0.905090
0.603662 0.000000 0.900605
0.732400 0.000000 0.896120
0.861138 0.000000 0.891635
0.989875 0.000000 0.887150
0.000000 0.118462 0.914225
0.096050 0.119210 0.909740
0.224788 0.119957 0.905255
0.353525 0.120705 0.900770
0.482262 0.121453 0.896285
0.611000 0.122200 0.891800
0.739738 0.122948 0.887315
0.868475 0.123695 0.882830
0.997213 0.124442 0.878345
0.000000 0.244930 0.905420
0.103387 0.245677 0.900935
0.232125 0.246425 0.896450
0.360862 0.247172 0.891965
0.489600 0.247920 0.887480
0.618337 0.248667 0.882995
0.747075 0.249415 0.878510
0.875812 0.250163 0.874025
1.000000 0.250910 0.869540
0.000000 0.371397 0.896615
0.110725 0.372145 0.892130
0.239462 0.372893 0.887645
0.368200 0.373640 0.883160
0.496937 0.374387 0.878675
0.625675 0.375135 0.874190
0.754413 0.375883 0.869705
0.883150 0.376630 0.865220
1.000000 0.377377 0.860735
0.000000 0.497865 0.887810
0.118063 0.498613 0.883325
0.246800 0.499360 0.878840
0.375538 0.500108 0.874355
0.504275 0.500855 0.869870
0.633012 0.501602 0.865385
0.761750 0.502350 0.860900
0.890487 0.503097 0.856415
1.000000 0.503845 0.851930
0.000000 0.624332 0.879005
0.125400 0.625080 0.874520
0.254138 0.625827 0.870035
0.382875 0.626575 0.865550
0.511613 0.627323 0.861065
0.640350 0.628070 0.856580
0.769088 0.628818 0.852095
0.897825 0.629565 0.847610
1.000000 0.630313 0.843125
0.004000 0.750800 0.870200
0.132738 0.751548 0.865715
0.261475 0.752295 0.861230
0.390213 0.753042 0.856745
0.518950 0.753790 0.852260
0.647687 0.754537 0.847775
0.776425 0.755285 0.843290
0.905162 0.756032 0.838805
1.000000 0.756780 0.834320
0.011338 0.877267 0.861395
0.140075 0.878015 0.856910
0.268813 0.878763 0.852425
0.397550 0.879510 0.847940
0.526288 0.880258 0.843455
0.655025 0.881005 0.838970
0.783763 0.881753 0.834485
0.912500 0.882500 0.830000
1.000000 0.883247 0.825515
0.018675 1.000000 0.852590
0.147413 1.000000 0.848105
0.276150 1.000000 0.843620
0.404888 1.000000 0.839135
0.533625 1.000000 0.834650
0.662362 1.000000 0.830165
0.791100 1.000000 0.825680
0.919837 1.000000 0.821195
1.000000 1.000000 0.816710
0.000000 0.000000 1.000000
0.090138 0.000000 1.000000
0.218875 0.000000 1.000000
0.347612 0.000000 1.000000
0.476350 0.000000 1.000000
0.605088 0.000000 1.000000
0.733825 0.000000 1.000000
0.862563 0.000000 1.000000
0.991300 0.000000 1.000000
0.000000 0.118748 1.000000
0.097475 0.119495 1.000000
0.226212 0.120243 1.000000
0.354950 0.120990 1.000000
0.483687 0.121737 1.000000
0.612425 0.122485 1.000000
0.741162 0.123232 1.000000
0.869900 0.123980 1.000000
0.998637 0.124728 1.000000
0.000000 0.245215 1.000000
0.104813 0.245963 1.000000
0.233550 0.246710 1.000000
0.362287 0.247457 1.000000
0.491025 0.248205 1.000000
0.619762 0.248952 1.000000
0.748500 0.249700 1.000000
0.877238 0.250447 0.997315
1.000000 0.251195 0.992830
0.000000 0.371683 1.000000
0.112150 0.372430 1.000000
0.240888 0.373177 1.000000
0.369625 0.373925 1.000000
0.498362 0.374673 1.000000
0.627100 0.375420 0.997480
0.755837 0.376167 0.992995
0.884575 0.376915 0.988510
1.000000 0.377663 0.984025
0.000000 0.498150 1.000000
0.119487 0.498897 1.000000
0.248225 0.499645 1.000000
0.376962 0.500393 0.997645
0.505700 0.501140 0.993160
0.634437 0.501888 0.988675
0.763175 0.502635 0.984190
0.891912 0.503382 0.979705
1.000000 0.504130 0.975220
0.000000 0.624618 1.000000
0.126825 0.625365 0.997810
0.255562 0.626112 0.993325
0.384300 0.626860 0.988840
0.513038 0.627607 0.984355
0.641775 0.628355 0.979870
0.770512 0.629103 0.975385
0.899250 0.629850 0.970900
1.000000 0.630598 0.966415
0.005425 0.751085 0.993490
0.134162 0.751833 0.989005
0.262900 0.752580 0.984520
0.391637 0.753328 0.980035
0.520375 0.754075 0.975550
0.649112 0.754822 0.971065
0.777850 0.755570 0.966580
0.906587 0.756317 0.962095
1.000000 0.757065 0.957610
0.012762 0.877552 0.984685
0.141500 0.878300 0.980200
0.270238 0.879047 0.975715
0.398975 0.879795 0.971230
0.527713 0.880543 0.966745
0.656450 0.881290 0.962260
0.785188 0.882038 0.957775
0.913925 0.882785 0.953290
1.000000 0.883533 0.948805
0.020100 1.000000 0.975880
0.148838 1.000000 0.971395
0.277575 1.000000 0.966910
0.406313 1.000000 0.962425
0.535050 1.000000 0.957940
0.663787 1.000000 0.953455
0.792525 1.000000 0.948970
0.921262 1.000000 0.944485
1.000000 1.000000 0.940000
