luts/warm.cube
# warm — generated by luts/generate_luts.py. Do not edit by hand.
TITLE "warm"
LUT_3D_SIZE 9
DOMAIN_MIN 0.0 0.0 0.0
DOMAIN_MAX 1.0 1.0 1.0

0.000000 0.000000 0.000000
0.160428 0.000000 0.000000
0.295248 0.000000 0.000000
0.421840 0.000000 0.000000
0.543367 0.000000 0.000000
0.661263 0.000000 0.000000
0.776343 0.000000 0.000000
0.889134 0.000000 0.000000
1.000000 0.000000 0.000000
0.000000 0.135842 0.000000
0.160428 0.135842 0.000000
0.295248 0.135842 0.000000
0.421840 0.135842 0.000000
0.543367 0.135842 0.000000
0.661263 0.135842 0.000000
0.776343 0.135842 0.000000
0.889134 0.135842 0.000000
1.000000 0.135842 0.000000
0.000000 0.264255 0.000000
0.160428 0.264255 0.000000
0.295248 0.264255 0.000000
0.421840 0.264255 0.000000
0.543367 0.264255 0.000000
0.661263 0.264255 0.000000
0.776343 0.264255 0.000000
0.889134 0.264255 0.000000
1.000000 0.264255 0.000000
0.000000 0.390005 0.000000
0.160428 0.390005 0.000000
0.295248 0.390005 0.000000
0.421840 0.390005 0.000000
0.543367 0.390005 0.000000
0.661263 0.390005 0.000000
0.776343 0.390005 0.000000
0.889134 0.390005 0.000000
1.000000 0.390005 0.000000
0.000000 0.514057 0.000000
0.160428 0.514057 0.000000
0.295248 0.514057 0.000000
0.421840 0.514057 0.000000
0.543367 0.514057 0.000000
0.661263 0.514057 0.000000
0.776343 0.514057 0.000000
0.889134 0.514057 0.000000
1.000000 0.514057 0.000000
0.000000 0.636861 0.000000
0.160428 0.636861 0.000000
0.295248 0.636861 0.000000
0.421840 0.636861 0.000000
0.543367 0.636861 0.000000
0.661263 0.636861 0.000000
0.776343 0.636861 0.000000
0.889134 0.636861 0.000000
1.000000 0.636861 0.000000
0.000000 0.758680 0.000000
0.160428 0.758680 0.000000
0.295248 0.758680 0.000000
0.421840 0.758680 0.000000
0.543367 0.758680 0.000000
0.661263 0.758680 0.000000
0.776343 0.758680 0.000000
0.889134 0.758680 0.000000
1.000000 0.758680 0.000000
0.000000 0.879686 0.000000
0.160428 0.879686 0.000000
0.295248 0.879686 0.000000
0.421840 0.879686 0.000000
0.543367 0.879686 0.000000
0.661263 0.879686 0.000000
0.776343 0.879686 0.000000
0.889134 0.879686 0.000000
1.000000 0.879686 0.000000
0.000000 1.000000 0.000000
0.160428 1.000000 0.000000
0.295248 1.000000 0.000000
0.421840 1.000000 0.000000
0.543367 1.000000 0.000000
0.661263 1.000000 0.000000
0.776343 1.000000 0.000000
0.889134 1.000000 0.000000
1.000000 1.000000 0.000000
0.000000 0.000000 0.091505
0.160428 0.000000 0.091505
0.295248 0.000000 0.091505
0.421840 0.000000 0.091505
0.543367 0.000000 0.091505
0.661263 0.000000 0.091505
0.776343 0.000000 0.091505
0.889134 0.000000 0.091505
1.000000 0.000000 0.091505
0.000000 0.135842 0.091505
0.160428 0.135842 0.091505
0.295248 0.135842 0.091505
0.421840 0.135842 0.091505
0.543367 0.135842 0.091505
0.661263 0.135842 0.091505
0.776343 0.135842 0.091505
0.889134 0.135842 0.091505
1.000000 0.135842 0.091505
0.000000 0.264255 0.091505
0.160428 0.264255 0.091505
0.295248 0.264255 0.091505
0.421840 0.264255 0.091505
0.543367 0.264255 0.091505
0.661263 0.264255 0.091505
0.776343 0.264255 0.091505
0.889134 0.264255 0.091505
1.000000 0.264255 0.091505
0.000000 0.390005 0.091505
0.160428 0.390005 0.091505
0.295248 0.390005 0.091505
0.421840 0.390005 0.091505
0.543367 0.390005 0.091505
0.661263 0.390005 0.091505
0.776343 0.390005 0.091505
0.889134 0.390005 0.091505
1.000000 0.390005 0.091505
0.000000 0.514057 0.091505
0.160428 0.514057 0.091505
0.295248 0.514057 0.091505
0.421840 0.514057 0.091505
0.543367 0.514057 0.091505
0.661263 0.514057 0.091505
0.776343 0.514057 0.091505
0.889134 0.514057 0.091505
1.000000 0.514057 0.091505
0.000000 0.636861 0.091505
0.160428 0.636861 0.091505
0.295248 0.636861 0.091505
0.421840 0.636861 0.091505
0.543367 0.636861 0.091505
0.661263 0.636861 0.091505
0.776343 0.636861 0.091505
0.889134 0.636861 0.091505
1.000000 0.636861 0.091505
0.000000 0.758680 0.091505
0.160428 0.758680 0.091505
0.295248 0.758680 0.091505
0.421840 0.758680 0.091505
0.543367 0.758680 0.091505
0.661263 0.758680 0.091505
0.776343 0.758680 0.091505
0.889134 0.758680 0.091505
1.000000 0.758680 0.091505
0.000000 0.879686 0.091505
0.160428 0.879686 0.091505
0.295248 0.879686 0.091505
0.421840 0.879686 0.091505
0.543367 0.879686 0.091505
0.661263 0.879686 0.091505
0.776343 0.879686 0.091505
0.889134 0.879686 0.091505
1.000000 0.879686 0.091505
0.000000 1.000000 0.091505
0.160428 1.000000 0.091505
0.295248 1.000000 0.091505
0.421840 1.000000 0.091505
0.543367 1.000000 0.091505
0.661263 1.000000 0.091505
0.776343 1.000000 0.091505
0.889134 1.000000 0.091505
1.000000 1.000000 0.091505
0.000000 0.000000 0.203063
0.160428 0.000000 0.203063
0.295248 0.000000 0.203063
0.421840 0.000000 0.203063
0.543367 0.000000 0.203063
0.661263 0.000000 0.203063
0.776343 0.000000 0.203063
0.889134 0.000000 0.203063
1.000000 0.000000 0.203063
0.000000 0.135842 0.203063
0.160428 0.135842 0.203063
0.295248 0.135842 0.203063
0.421840 0.135842 0.203063
0.543367 0.135842 0.203063
0.661263 0.135842 0.203063
0.776343 0.135842 0.203063
0.889134 0.135842 0.203063
1.000000 0.135842 0.203063
0.000000 0.264255 0.203063
0.160428 0.264255 0.203063
0.295248 0.264255 0.203063
0.421840 0.264255 0.203063
0.543367 0.264255 0.203063
0.661263 0.264255 0.203063
0.776343 0.264255 0.203063
0.889134 0.264255 0.203063
1.000000 0.264255 0.203063
0.000000 0.390005 0.203063
0.160428 0.390005 0.203063
0.295248 0.390005 0.203063
0.421840 0.390005 0.203063
0.543367 0.390005 0.203063
0.661263 0.390005 0.203063
0.776343 0.390005 0.203063
0.889134 0.390005 0.203063
1.000000 0.390005 0.203063
0.000000 0.514057 0.203063
0.160428 0.514057 0.203063
0.295248 0.514057 0.203063
0.421840 0.514057 0.203063
0.543367 0.514057 0.203063
0.661263 0.514057 0.203063
0.776343 0.514057 0.203063
0.889134 0.514057 0.203063
1.000000 0.514057 0.203063
0.000000 0.636861 0.203063
0.160428 0.636861 0.203063
0.295248 0.636861 0.203063
0.421840 0.636861 0.203063
0.543367 0.636861 0.203063
0.661263 0.636861 0.203063
0.776343 0.636861 0.203063
0.889134 0.636861 0.203063
1.000000 0.636861 0.203063
0.000000 0.758680 0.203063
0.160428 0.758680 0.203063
0.295248 0.758680 0.203063
0.421840 0.758680 0.203063
0.543367 0.758680 0.203063
0.661263 0.758680 0.203063
0.776343 0.758680 0.203063
0.889134 0.758680 0.203063
1.000000 0.758680 0.203063
0.000000 0.879686 0.203063
0.160428 0.879686 0.203063
0.295248 0.879686 0.203063
0.421840 0.879686 0.203063
0.543367 0.879686 0.203063
0.661263 0.879686 0.203063
0.776343 0.879686 0.203063
0.889134 0.879686 0.203063
1.000000 0.879686 0.203063
0.000000 1.000000 0.203063
0.160428 1.000000 0.203063
0.295248 1.000000 0.203063
0.421840 1.000000 0.203063
0.543367 1.000000 0.203063
0.661263 1.000000 0.203063
0.776343 1.000000 0.203063
0.889134 1.000000 0.203063
1.000000 1.000000 0.203063
0.000000 0.000000 0.323695
0.160428 0.000000 0.323695
0.295248 0.000000 0.323695
0.421840 0.000000 0.323695
0.543367 0.000000 0.323695
0.661263 0.000000 0.323695
0.776343 0.000000 0.323695
0.889134 0.000000 0.323695
1.000000 0.000000 0.323695
0.000000 0.135842 0.323695
0.160428 0.135842 0.323695
0.295248 0.135842 0.323695
0.421840 0.135842 0.323695
0.543367 0.135842 0.323695
0.661263 0.135842 0.323695
0.776343 0.135842 0.323695
0.889134 0.135842 0.323695
1.000000 0.135842 0.323695
0.000000 0.264255 0.323695
0.160428 0.264255 0.323695
0.295248 0.264255 0.323695
0.421840 0.264255 0.323695
0.543367 0.264255 0.323695
0.661263 0.264255 0.323695
0.776343 0.264255 0.323695
0.889134 0.264255 0.323695
1.000000 0.264255 0.323695
0.000000 0.390005 0.323695
0.160428 0.390005 0.323695
0.295248 0.390005 0.323695
0.421840 0.390005 0.323695
0.543367 0.390005 0.323695
0.661263 0.390005 0.323695
0.776343 0.390005 0.323695
0.889134 0.390005 0.323695
1.000000 0.390005 0.323695
0.000000 0.514057 0.323695
0.160428 0.514057 0.323695
0.295248 0.514057 0.323695
0.421840 0.514057 0.323695
0.543367 0.514057 0.323695
0.661263 0.514057 0.323695
0.776343 0.514057 0.323695
0.889134 0.514057 0.323695
1.000000 0.514057 0.323695
0.000000 0.636861 0.323695
0.160428 0.636861 0.323695
0.295248 0.636861 0.323695
0.421840 0.636861 0.323695
0.543367 0.636861 0.323695
0.661263 0.636861 0.323695
0.776343 0.636861 0.323695
0.889134 0.636861 0.323695
1.000000 0.636861 0.323695
0.000000 0.758680 0.323695
0.160428 0.758680 0.323695
0.295248 0.758680 0.323695
0.421840 0.758680 0.323695
0.543367 0.758680 0.323695
0.661263 0.758680 0.323695
0.776343 0.758680 0.323695
0.889134 0.758680 0.323695
1.000000 0.758680 0.323695
0.000000 0.879686 0.323695
0.160428 0.879686 0.323695
0.295248 0.879686 0.323695
0.421840 0.879686 0.323695
0.543367 0.879686 0.323695
0.661263 0.879686 0.323695
0.776343 0.879686 0.323695
0.889134 0.879686 0.323695
1.000000 0.879686 0.323695
0.000000 1.000000 0.323695
0.160428 1.000000 0.323695
0.295248 1.000000 0.323695
0.421840 1.000000 0.323695
0.543367 1.000000 0.323695
0.661263 1.000000 0.323695
0.776343 1.000000 0.323695
0.889134 1.000000 0.323695
1.000000 1.000000 0.323695
0.000000 0.000000 0.450625
0.160428 0.000000 0.450625
0.295248 0.000000 0.450625
0.421840 0.000000 0.450625
0.543367 0.000000 0.450625
0.661263 0.000000 0.450625
0.776343 0.000000 0.450625
0.889134 0.000000 0.450625
1.000000 0.000000 0.450625
0.000000 0.135842 0.450625
0.160428 0.135842 0.450625
0.295248 0.135842 0.450625
0.421840 0.135842 0.450625
0.543367 0.135842 0.450625
0.661263 0.135842 0.450625
0.776343 0.135842 0.450625
0.889134 0.135842 0.450625
1.000000 0.135842 0.450625
0.000000 0.264255 0.450625
0.160428 0.264255 0.450625
0.295248 0.264255 0.450625
0.421840 0.264255 0.450625
0.543367 0.264255 0.450625
0.661263 0.264255 0.450625
0.776343 0.264255 0.450625
0.889134 0.264255 0.450625
1.000000 0.264255 0.450625
0.000000 0.390005 0.450625
0.160428 0.390005 0.450625
0.295248 0.390005 0.450625
0.421840 0.390005 0.450625
0.543367 0.390005 0.450625
0.661263 0.390005 0.450625
0.776343 0.390005 0.450625
0.889134 0.390005 0.450625
1.000000 0.390005 0.450625
0.000000 0.514057 0.450625
0.160428 0.514057 0.450625
0.295248 0.514057 0.450625
0.421840 0.514057 0.450625
0.543367 0.514057 0.450625
0.661263 0.514057 0.450625
0.776343 0.514057 0.450625
0.889134 0.514057 0.450625
1.000000 0.514057 0.450625
0.000000 0.636861 0.450625
0.160428 0.636861 0.450625
0.295248 0.636861 0.450625
0.421840 0.636861 0.450625
0.543367 0.636861 0.450625
0.661263 0.636861 0.450625
0.776343 0.636861 0.450625
0.889134 0.636861 0.450625
1.000000 0.636861 0.450625
0.000000 0.758680 0.450625
0.160428 0.758680 0.450625
0.295248 0.758680 0.450625
0.421840 0.758680 0.450625
0.543367 0.758680 0.450625
0.661263 0.758680 0.450625
0.776343 0.758680 0.450625
0.889134 0.758680 0.450625
1.000000 0.758680 0.450625
0.000000 0.879686 0.450625
0.160428 0.879686 0.450625
0.295248 0.879686 0.450625
0.421840 0.879686 0.450625
0.543367 0.879686 0.450625
0.661263 0.879686 0.450625
0.776343 0.879686 0.450625
0.889134 0.879686 0.450625
1.000000 0.879686 0.450625
0.000000 1.000000 0.450625
0.160428 1.000000 0.450625
0.295248 1.000000 0.450625
0.421840 1.000000 0.450625
0.543367 1.000000 0.450625
0.661263 1.000000 0.450625
0.776343 1.000000 0.450625
0.889134 1.000000 0.450625
1.000000 1.000000 0.450625
0.000000 0.000000 0.582455
0.160428 0.000000 0.582455
0.295248 0.000000 0.582455
0.421840 0.000000 0.582455
0.543367 0.000000 0.582455
0.661263 0.000000 0.582455
0.776343 0.000000 0.582455
0.889134 0.000000 0.582455
1.000000 0.000000 0.582455
0.000000 0.135842 0.582455
0.160428 0.135842 0.582455
0.295248 0.135842 0.582455
0.421840 0.135842 0.582455
0.543367 0.135842 0.582455
0.661263 0.135842 0.582455
0.776343 0.135842 0.582455
0.889134 0.135842 0.582455
1.000000 0.135842 0.582455
0.000000 0.264255 0.582455
0.160428 0.264255 0.582455
0.295248 0.264255 0.582455
0.421840 0.264255 0.582455
0.543367 0.264255 0.582455
0.661263 0.264255 0.582455
0.776343 0.264255 0.582455
0.889134 0.264255 0.582455
1.000000 0.264255 0.582455
0.000000 0.390005 0.582455
0.160428 0.390005 0.582455
0.295248 0.390005 0.582455
0.421840 0.390005 0.582455
0.543367 0.390005 0.582455
0.661263 0.390005 0.582455
0.776343 0.390005 0.582455
0.889134 0.390005 0.582455
1.000000 0.390005 0.582455
0.000000 0.514057 0.582455
0.160428 0.514057 0.582455
0.295248 0.514057 0.582455
0.421840 0.514057 0.582455
0.543367 0.514057 0.582455
0.661263 0.514057 0.582455
0.776343 0.514057 0.582455
0.889134 0.514057 0.582455
1.000000 0.514057 0.582455
0.000000 0.636861 0.582455
0.160428 0.636861 0.582455
0.295248 0.636861 0.582455
0.421840 0.636861 0.582455
0.543367 0.636861 0.582455
0.661263 0.636861 0.582455
0.776343 0.636861 0.582455
0.889134 0.636861 0.582455
1.000000 0.636861 0.582455
0.000000 0.758680 0.582455
0.160428 0.758680 0.582455
0.295248 0.758680 0.582455
0.421840 0.758680 0.582455
0.543367 0.758680 0.582455
0.661263 0.758680 0.582455
0.776343 0.758680 0.582455
0.889134 0.758680 0.582455
1.000000 0.758680 0.582455
0.000000 0.879686 0.582455
0.160428 0.879686 0.582455
0.295248 0.879686 0.582455
0.421840 0.879686 0.582455
0.543367 0.879686 0.582455
0.661263 0.879686 0.582455
0.776343 0.879686 0.582455
0.889134 0.879686 0.582455
1.000000 0.879686 0.582455
0.000000 1.000000 0.582455
0.160428 1.000000 0.582455
0.295248 1.000000 0.582455
0.421840 1.000000 0.582455
0.543367 1.000000 0.582455
0.661263 1.000000 0.582455
0.776343 1.000000 0.582455
0.889134 1.000000 0.582455
1.000000 1.000000 0.582455
0.000000 0.000000 0.718324
0.160428 0.000000 0.718324
0.295248 0.000000 0.718324
0.421840 0.000000 0.718324
0.543367 0.000000 0.718324
0.661263 0.000000 0.718324
0.776343 0.000000 0.718324
0.889134 0.000000 0.718324
1.000000 0.000000 0.718324
0.000000 0.135842 0.718324
0.160428 0.135842 0.718324
0.295248 0.135842 0.718324
0.421840 0.135842 0.718324
0.543367 0.135842 0.718324
0.661263 0.135842 0.718324
0.776343 0.135842 0.718324
0.889134 0.135842 0.718324
1.000000 0.135842 0.718324
0.000000 0.264255 0.718324
0.160428 0.264255 0.718324
0.295248 0.264255 0.718324
0.421840 0.264255 0.718324
0.543367 0.264255 0.718324
0.661263 0.264255 0.718324
0.776343 0.264255 0.718324
0.889134 0.264255 0.718324
1.000000 0.264255 0.718324
0.000000 0.390005 0.718324
0.160428 0.390005 0.718324
0.295248 0.390005 0.718324
0.421840 0.390005 0.718324
0.543367 0.390005 0.718324
0.661263 0.390005 0.718324
0.776343 0.390005 0.718324
0.889134 0.390005 0.718324
1.000000 0.390005 0.718324
0.000000 0.514057 0.718324
0.160428 0.514057 0.718324
0.295248 0.514057 0.718324
0.421840 0.514057 0.718324
0.543367 0.514057 0.718324
0.661263 0.514057 0.718324
0.776343 0.514057 0.718324
0.889134 0.514057 0.718324
1.000000 0.514057 0.718324
0.000000 0.636861 0.718324
0.160428 0.636861 0.718324
0.295248 0.636861 0.718324
0.421840 0.636861 0.718324
0.543367 0.636861 0.718324
0.661263 0.636861 0.718324
0.776343 0.636861 0.718324
0.889134 0.636861 0.718324
1.000000 0.636861 0.718324
0.000000 0.758680 0.718324
0.160428 0.758680 0.718324
0.295248 0.758680 0.718324
0.421840 0.758680 0.718324
0.543367 0.758680 0.718324
0.661263 0.758680 0.718324
0.776343 0.758680 0.718324
0.889134 0.758680 0.718324
1.000000 0.758680 0.718324
0.000000 0.879686 0.718324
0.160428 0.879686 0.718324
0.295248 0.879686 0.718324
0.421840 0.879686 0.718324
0.543367 0.879686 0.718324
0.661263 0.879686 0.718324
0.776343 0.879686 0.718324
0.889134 0.879686 0.718324
1.000000 0.879686 0.718324
0.000000 1.000000 0.718324
0.160428 1.000000 0.718324
0.295248 1.000000 0.718324
0.421840 1.000000 0.718324
0.543367 1.000000 0.718324
0.661263 1.000000 0.718324
0.776343 1.000000 0.718324
0.889134 1.000000 0.718324
1.000000 1.000000 0.718324
0.000000 0.000000 0.857648
0.160428 0.000000 0.857648
0.295248 0.000000 0.857648
0.421840 0.000000 0.857648
0.543367 0.000000 0.857648
0.661263 0.000000 0.857648
0.776343 0.000000 0.857648
0.889134 0.000000 0.857648
1.000000 0.000000 0.857648
0.000000 0.135842 0.857648
0.160428 0.135842 0.857648
0.295248 0.135842 0.857648
0.421840 0.135842 0.857648
0.543367 0.135842 0.857648
0.661263 0.135842 0.857648
0.776343 0.135842 0.857648
0.889134 0.135842 0.857648
1.000000 0.135842 0.857648
0.000000 0.264255 0.857648
0.160428 0.264255 0.857648
0.295248 0.264255 0.857648
0.421840 0.264255 0.857648
0.543367 0.264255 0.857648
0.661263 0.264255 0.857648
0.776343 0.264255 0.857648
0.889134 0.264255 0.857648
1.000000 0.264255 0.857648
0.000000 0.390005 0.857648
0.160428 0.390005 0.857648
0.295248 0.390005 0.857648
0.421840 0.390005 0.857648
0.543367 0.390005 0.857648
0.661263 0.390005 0.857648
0.776343 0.390005 0.857648
0.889134 0.390005 0.857648
1.000000 0.390005 0.857648
0.000000 0.514057 0.857648
0.160428 0.514057 0.857648
0.295248 0.514057 0.857648
0.421840 0.514057 0.857648
0.543367 0.514057 0.857648
0.661263 0.514057 0.857648
0.776343 0.514057 0.857648
0.889134 0.514057 0.857648
1.000000 0.514057 0.857648
0.000000 0.636861 0.857648
0.160428 0.636861 0.857648
0.295248 0.636861 0.857648
0.421840 0.636861 0.857648
0.543367 0.636861 0.857648
0.661263 0.636861 0.857648
0.776343 0.636861 0.857648
0.889134 0.636861 0.857648
1.000000 0.636861 0.857648
0.000000 0.758680 0.857648
0.160428 0.758680 0.857648
0.295248 0.758680 0.857648
0.421840 0.758680 0.857648
0.543367 0.758680 0.857648
0.661263 0.758680 0.857648
0.776343 0.758680 0.857648
0.889134 0.758680 0.857648
1.000000 0.758680 0.857648
0.000000 0.879686 0.857648
0.160428 0.879686 0.857648
0.295248 0.879686 0.857648
0.421840 0.879686 0.857648
0.543367 0.879686 0.857648
0.661263 0.879686 0.857648
0.776343 0.879686 0.857648
0.889134 0.879686 0.857648
1.000000 0.879686 0.857648
0.000000 1.000000 0.857648
0.160428 1.000000 0.857648
0.295248 1.000000 0.857648
0.421840 1.000000 0.857648
0.543367 1.000000 0.857648
0.661263 1.000000 0.857648
0.776343 1.000000 0.857648
0.889134 1.000000 0.857648
1.000000 1.000000 0.857648
0.000000 0.000000 1.000000
0.160428 0.000000 1.000000
0.295248 0.000000 1.000000
0.421840 0.000000 1.000000
0.543367 0.000000 1.000000
0.661263 0.000000 1.000000
0.776343 0.000000 1.000000
0.889134 0.000000 1.000000
1.000000 0.000000 1.000000
0.000000 0.135842 1.000000
0.160428 0.135842 1.000000
0.295248 0.135842 1.000000
0.421840 0.135842 1.000000
0.543367 0.135842 1.000000
0.661263 0.135842 1.000000
0.776343 0.135842 1.000000
0.889134 0.135842 1.000000
1.000000 0.135842 1.000000
0.000000 0.264255 1.000000
0.160428 0.264255 1.000000
0.295248 0.264255 1.000000
0.421840 0.264255 1.000000
0.543367 0.264255 1.000000
0.661263 0.264255 1.000000
0.776343 0.264255 1.000000
0.889134 0.264255 1.000000
1.000000 0.264255 1.000000
0.000000 0.390005 1.000000
0.160428 0.390005 1.000000
0.295248 0.390005 1.000000
0.421840 0.390005 1.000000
0.543367 0.390005 1.000000
0.661263 0.390005 1.000000
0.776343 0.390005 1.000000
0.889134 0.390005 1.000000
1.000000 0.390005 1.000000
0.000000 0.514057 1.000000
0.160428 0.514057 1.000000
0.295248 0.514057 1.000000
0.421840 0.514057 1.000000
0.543367 0.514057 1.000000
0.661263 0.514057 1.000000
0.776343 0.514057 1.000000
0.889134 0.514057 1.000000
1.000000 0.514057 1.000000
0.000000 0.636861 1.000000
0.160428 0.636861 1.000000
0.295248 0.636861 1.000000
0.421840 0.636861 1.000000
0.543367 0.636861 1.000000
0.661263 0.636861 1.000000
0.776343 0.636861 1.000000
0.889134 0.636861 1.000000
1.000000 0.636861 1.000000
0.000000 0.758680 1.000000
0.160428 0.758680 1.000000
0.295248 0.758680 1.000000
0.421840 0.758680 1.000000
0.543367 0.758680 1.000000
0.661263 0.758680 1.000000
0.776343 0.758680 1.000000
0.889134 0.758680 1.000000
1.000000 0.758680 1.000000
0.000000 0.879686 1.000000
0.160428 0.879686 1.000000
0.295248 0.879686 1.000000
0.421840 0.879686 1.000000
0.543367 0.879686 1.000000
0.661263 0.879686 1.000000
0.776343 0.879686 1.000000
0.889134 0.879686 1.000000
1.000000 0.879686 1.000000
0.000000 1.000000 1.000000
0.160428 1.000000 1.000000
0.295248 1.000000 1.000000
0.421840 1.000000 1.000000
0.543367 1.000000 1.000000
0.661263 1.000000 1.000000
0.776343 1.000000 1.000000
0.889134 1.000000 1.000000
1.000000 1.000000 1.000000
